;FLAVOR:Marlin
;TIME:15469
;Filament used: 8.99228m
;Layer height: 0.2
;MINX:79.301
;MINY:63.713
;MINZ:0.2
;MAXX:152.493
;MAXY:171.309
;MAXZ:40
;TARGET_MACHINE.NAME:Creality Ender-3
;Generated with Cura_SteamEngine 5.6.0
M140 S60
M105
M190 S60
M104 S205
M105
M109 S205
M82 ;absolute extrusion mode
; Ender 3 Custom Start G-code
G92 E0 ; Reset Extruder
G28 ; Home all axes
G1 Z2.0 F3000 ; Move Z Axis up little to prevent scratching of Heat Bed
G1 X0.1 Y20 Z0.3 F5000.0 ; Move to start position
G1 X0.1 Y200.0 Z0.3 F1500.0 E15 ; Draw the first line
G1 X0.4 Y200.0 Z0.3 F5000.0 ; Move to side a little
G1 X0.4 Y20 Z0.3 F1500.0 E30 ; Draw the second line
G92 E0 ; Reset Extruder
G1 Z2.0 F3000 ; Move Z Axis up little to prevent scratching of Heat Bed
G1 X5 Y20 Z0.3 F5000.0 ; Move over to prevent blob squish
G92 E0
G92 E0
G1 F2700 E-5
;LAYER_COUNT:200
;LAYER:0
M107
G0 F6000 X86.84 Y68.261 Z0.2
;TYPE:SKIRT
G1 F2700 E0
G1 F1200 X87.536 Y67.482 E0.03474
G1 X88.249 Y66.818 E0.06715
G1 X89.017 Y66.219 E0.09954
G1 X89.775 Y65.727 E0.1296
G1 X90.981 Y65.11 E0.17466
G1 X91.624 Y64.83 E0.19798
G1 X92.229 Y64.584 E0.21971
G1 X93.19 Y64.254 E0.2535
G1 X94.121 Y64.022 E0.28541
G1 X94.711 Y63.918 E0.30534
G1 X95.299 Y63.833 E0.3251
G1 X96.497 Y63.73 E0.36509
G1 X97.228 Y63.713 E0.38941
G1 X98.958 Y63.713 E0.44695
G1 X99.737 Y63.729 E0.47287
G1 X100.315 Y63.758 E0.49211
G1 X103.383 Y63.963 E0.59438
G1 X105.889 Y64.055 E0.67779
G1 X108.415 Y64.076 E0.76181
G1 X110.914 Y64.026 E0.84494
G1 X113.437 Y63.904 E0.92896
G1 X114.42 Y63.829 E0.96175
G1 X115.706 Y63.757 E1.00459
G1 X116.26 Y63.742 E1.02302
G1 X117.755 Y63.739 E1.07274
G1 X118.642 Y63.749 E1.10225
G1 X119.384 Y63.785 E1.12695
G1 X121.881 Y63.994 E1.21029
G1 X124.369 Y64.131 E1.29317
G1 X126.906 Y64.2 E1.37758
G1 X129.393 Y64.198 E1.4603
G1 X131.941 Y64.123 E1.54508
G1 X134.972 Y63.942 E1.64608
G1 X135.432 Y63.925 E1.66139
G1 X136.52 Y63.91 E1.69758
G1 X138.517 Y63.92 E1.764
G1 X139.482 Y63.969 E1.79614
G1 X140.213 Y64.064 E1.82065
G1 X140.839 Y64.168 E1.84176
G1 X141.791 Y64.371 E1.87413
G1 X142.723 Y64.657 E1.90656
G1 X143.621 Y65.024 E1.93883
G1 X144.421 Y65.431 E1.96868
G1 X145.115 Y65.831 E1.99532
G1 X145.738 Y66.215 E2.01966
G1 X146.558 Y66.775 E2.05269
G1 X147.309 Y67.392 E2.08502
G1 X148.005 Y68.075 E2.11745
G1 X148.635 Y68.815 E2.14977
G1 X149.201 Y69.609 E2.1822
G1 X149.659 Y70.387 E2.21223
G1 X150.106 Y71.332 E2.247
G1 X150.444 Y72.253 E2.27963
G1 X150.737 Y73.373 E2.31814
G1 X150.854 Y73.986 E2.33889
G1 X151.225 Y76.192 E2.4133
G1 X151.698 Y78.741 E2.49952
G1 X152.246 Y81.303 E2.58666
G1 X152.405 Y82.265 E2.61909
G1 X152.478 Y83.241 E2.65165
G1 X152.493 Y83.898 E2.6735
G1 X152.492 Y90.046 E2.87799
G1 X152.478 Y90.797 E2.90297
G1 X152.416 Y91.767 E2.9353
G1 X152.282 Y92.66 E2.96533
G1 X152.086 Y93.499 E2.99399
G1 X151.539 Y95.428 E3.06068
G1 X150.915 Y97.826 E3.14309
G1 X150.343 Y100.319 E3.22816
G1 X149.855 Y102.749 E3.3106
G1 X149.429 Y105.242 E3.39472
G1 X149.075 Y107.731 E3.47834
G1 X148.796 Y110.194 E3.56078
G1 X148.577 Y112.732 E3.64551
G1 X148.438 Y115.232 E3.72879
G1 X148.366 Y117.775 E3.8134
G1 X148.366 Y120.286 E3.89692
G1 X148.438 Y122.798 E3.9805
G1 X148.581 Y125.314 E4.06432
G1 X148.793 Y127.83 E4.1483
G1 X149.075 Y130.294 E4.23078
G1 X149.429 Y132.786 E4.3145
G1 X149.859 Y135.299 E4.3993
G1 X150.347 Y137.726 E4.48164
G1 X150.91 Y140.18 E4.56538
G1 X151.747 Y143.374 E4.6752
G1 X151.949 Y144.325 E4.70753
G1 X152.061 Y145.221 E4.73757
G1 X152.094 Y145.806 E4.75705
G1 X152.109 Y146.462 E4.77888
G1 X152.11 Y158.65 E5.18425
G1 X152.097 Y159.559 E5.21449
G1 X152.039 Y160.532 E5.24691
G1 X151.893 Y161.495 E5.2793
G1 X151.663 Y162.441 E5.31169
G1 X151.35 Y163.364 E5.3441
G1 X150.958 Y164.255 E5.37648
G1 X150.506 Y165.077 E5.40768
G1 X149.943 Y165.915 E5.44126
G1 X149.329 Y166.673 E5.4737
G1 X148.652 Y167.371 E5.50604
G1 X147.915 Y168.008 E5.53844
G1 X147.113 Y168.584 E5.57128
G1 X145.976 Y169.233 E5.61483
G1 X145.305 Y169.551 E5.63952
G1 X144.449 Y169.915 E5.67046
G1 X143.612 Y170.228 E5.70018
G1 X142.663 Y170.534 E5.73335
G1 X141.967 Y170.73 E5.7574
G1 X141.298 Y170.896 E5.78032
G1 X140.516 Y171.063 E5.80692
G1 X139.554 Y171.222 E5.83935
G1 X138.55 Y171.296 E5.87283
G1 X137.837 Y171.309 E5.89655
G1 X136.575 Y171.297 E5.93853
G1 X135.482 Y171.232 E5.97495
G1 X132.985 Y170.952 E6.05852
G1 X130.501 Y170.739 E6.14144
G1 X127.986 Y170.598 E6.22522
G1 X125.427 Y170.525 E6.31037
G1 X124.126 Y170.516 E6.35364
G1 X110.93 Y170.516 E6.79254
G1 X108.346 Y170.553 E6.87849
G1 X105.778 Y170.662 E6.96398
G1 X103.343 Y170.835 E7.04517
G1 X100.607 Y171.107 E7.13662
G1 X99.512 Y171.232 E7.17328
G1 X98.597 Y171.296 E7.20379
G1 X97.885 Y171.309 E7.22747
G1 X96.622 Y171.297 E7.26948
G1 X95.645 Y171.243 E7.30202
G1 X94.586 Y171.084 E7.33764
G1 X93.559 Y170.865 E7.37257
G1 X93.157 Y170.765 E7.38635
G1 X92.232 Y170.503 E7.41832
G1 X91.541 Y170.284 E7.44243
G1 X90.993 Y170.088 E7.46179
G1 X90.405 Y169.858 E7.48279
G1 X89.775 Y169.587 E7.5056
G1 X89.215 Y169.325 E7.52616
G1 X88.353 Y168.871 E7.55857
G1 X87.534 Y168.343 E7.59098
G1 X86.766 Y167.746 E7.62333
G1 X86.103 Y167.133 E7.65336
G1 X85.402 Y166.357 E7.68814
G1 X84.838 Y165.608 E7.71933
G1 X84.304 Y164.75 E7.75294
G1 X83.868 Y163.88 E7.78531
G1 X83.508 Y162.977 E7.81764
G1 X83.247 Y162.112 E7.84769
G1 X83.118 Y161.551 E7.86684
G1 X82.885 Y160.399 E7.90593
G1 X82.322 Y157.794 E7.99457
G1 X81.742 Y155.432 E8.07547
G1 X80.904 Y152.429 E8.17916
G1 X80.689 Y151.48 E8.21153
G1 X80.558 Y150.526 E8.24355
G1 X80.514 Y149.829 E8.26678
G1 X80.5 Y149.18 E8.28837
G1 X80.464 Y110.22 E9.58419
G1 X80.424 Y107.619 E9.67071
G1 X80.314 Y105.085 E9.75507
G1 X80.133 Y102.567 E9.83904
G1 X79.888 Y100.132 E9.92043
G1 X79.403 Y96.485 E10.0428
G1 X79.308 Y95.082 E10.08957
G1 X79.301 Y93.083 E10.15606
G1 X79.314 Y92.341 E10.18074
G1 X79.375 Y91.369 E10.21313
G1 X79.522 Y90.407 E10.2455
G1 X79.752 Y89.467 E10.27769
G1 X79.991 Y88.744 E10.30301
G1 X80.277 Y87.969 E10.33049
G1 X81.159 Y85.469 E10.41866
G1 X81.928 Y83.071 E10.50242
G1 X82.632 Y80.653 E10.58618
G1 X83.268 Y78.205 E10.67031
G1 X83.839 Y75.719 E10.75515
G1 X84.136 Y74.296 E10.8035
G1 X84.304 Y73.611 E10.82695
G1 X84.629 Y72.448 E10.86712
G1 X84.934 Y71.523 E10.89951
G1 X85.29 Y70.692 E10.92958
G1 X85.767 Y69.805 E10.96308
G1 X86.3 Y68.985 E10.99561
G1 X86.84 Y68.261 E11.02565
G0 F6000 X87.161 Y68.5
G1 F1200 X87.809 Y67.774 E11.05801
G1 X88.495 Y67.133 E11.08924
G1 X89.235 Y66.555 E11.12047
G1 X89.993 Y66.063 E11.15053
G1 X91.141 Y65.477 E11.1934
G1 X91.775 Y65.201 E11.2164
G1 X92.38 Y64.955 E11.23812
G1 X93.287 Y64.642 E11.27003
G1 X94.191 Y64.416 E11.30102
G1 X94.769 Y64.314 E11.32054
G1 X95.333 Y64.232 E11.3395
G1 X96.531 Y64.129 E11.37949
G1 X97.237 Y64.113 E11.40298
G1 X98.95 Y64.113 E11.45996
G1 X99.717 Y64.128 E11.48547
G1 X100.288 Y64.157 E11.50449
G1 X103.368 Y64.363 E11.60716
G1 X105.874 Y64.455 E11.69056
G1 X108.42 Y64.476 E11.77525
G1 X110.933 Y64.426 E11.85885
G1 X113.456 Y64.304 E11.94286
G1 X114.45 Y64.228 E11.97602
G1 X115.717 Y64.157 E12.01822
G1 X116.261 Y64.142 E12.03632
G1 X117.75 Y64.139 E12.08585
G1 X118.623 Y64.149 E12.11489
G1 X119.351 Y64.184 E12.13913
G1 X121.848 Y64.392 E12.22246
G1 X124.358 Y64.531 E12.30608
G1 X126.895 Y64.6 E12.39049
G1 X129.405 Y64.598 E12.47397
G1 X131.953 Y64.523 E12.55875
G1 X134.987 Y64.342 E12.65984
G1 X135.438 Y64.325 E12.67486
G1 X136.518 Y64.31 E12.71078
G1 X138.497 Y64.319 E12.7766
G1 X139.431 Y64.366 E12.80771
G1 X140.148 Y64.459 E12.83175
G1 X140.756 Y64.559 E12.85225
G1 X141.674 Y64.753 E12.88346
G1 X142.572 Y65.028 E12.91469
G1 X143.44 Y65.381 E12.94586
G1 X144.221 Y65.778 E12.975
G1 X144.905 Y66.172 E13.00125
G1 X145.513 Y66.546 E13.02499
G1 X146.304 Y67.084 E13.05681
G1 X147.029 Y67.678 E13.08798
G1 X147.701 Y68.335 E13.11924
G1 X148.31 Y69.048 E13.15043
G1 X148.856 Y69.812 E13.18166
G1 X149.314 Y70.59 E13.21169
G1 X149.731 Y71.47 E13.24408
G1 X150.057 Y72.354 E13.27542
G1 X150.344 Y73.449 E13.31307
G1 X150.46 Y74.052 E13.33349
G1 X150.832 Y76.265 E13.40813
G1 X151.307 Y78.825 E13.49473
G1 X151.851 Y81.369 E13.58125
G1 X152.006 Y82.295 E13.61248
G1 X152.078 Y83.25 E13.64433
G1 X152.093 Y83.898 E13.66589
G1 X152.092 Y90.039 E13.87014
G1 X152.079 Y90.772 E13.89453
G1 X152.02 Y91.708 E13.92572
G1 X151.886 Y92.601 E13.95575
G1 X151.7 Y93.392 E13.98278
G1 X151.426 Y94.383 E14.01698
G1 X151.155 Y95.317 E14.04932
G1 X150.528 Y97.725 E14.13208
G1 X149.953 Y100.229 E14.21754
G1 X149.463 Y102.67 E14.30034
G1 X149.035 Y105.175 E14.38487
G1 X148.679 Y107.675 E14.46886
G1 X148.397 Y110.16 E14.55204
G1 X148.179 Y112.698 E14.63676
G1 X148.038 Y115.221 E14.72081
G1 X147.966 Y117.764 E14.80542
G1 X147.966 Y120.286 E14.88931
G1 X148.038 Y122.809 E14.97326
G1 X148.182 Y125.348 E15.05784
G1 X148.395 Y127.864 E15.14182
G1 X148.679 Y130.35 E15.22504
G1 X149.035 Y132.853 E15.30913
G1 X149.467 Y135.378 E15.39433
G1 X149.957 Y137.815 E15.47701
G1 X150.523 Y140.281 E15.56116
G1 X151.356 Y143.458 E15.6704
G1 X151.552 Y144.375 E15.70159
G1 X151.664 Y145.271 E15.73162
G1 X151.694 Y145.815 E15.74974
G1 X151.709 Y146.462 E15.77127
G1 X151.71 Y158.645 E16.17648
G1 X151.698 Y159.536 E16.20611
G1 X151.643 Y160.473 E16.23733
G1 X151.504 Y161.401 E16.26854
G1 X151.284 Y162.313 E16.29975
G1 X150.984 Y163.203 E16.33098
G1 X150.607 Y164.062 E16.36219
G1 X150.155 Y164.884 E16.39339
G1 X149.632 Y165.664 E16.42462
G1 X149.042 Y166.395 E16.45586
G1 X148.39 Y167.069 E16.48705
G1 X147.681 Y167.684 E16.51827
G1 X146.914 Y168.237 E16.54972
G1 X145.804 Y168.872 E16.59225
G1 X145.149 Y169.183 E16.61637
G1 X144.309 Y169.54 E16.64673
G1 X143.489 Y169.847 E16.67585
G1 X142.554 Y170.149 E16.70853
G1 X141.871 Y170.342 E16.73214
G1 X141.215 Y170.505 E16.75462
G1 X140.45 Y170.668 E16.78063
G1 X139.524 Y170.823 E16.81186
G1 X138.543 Y170.896 E16.84458
G1 X137.841 Y170.909 E16.86793
G1 X136.599 Y170.898 E16.90924
G1 X135.527 Y170.834 E16.94496
G1 X133.028 Y170.554 E17.0286
G1 X130.535 Y170.341 E17.11182
G1 X127.997 Y170.198 E17.19637
G1 X125.438 Y170.125 E17.28151
G1 X124.129 Y170.116 E17.32505
G1 X110.924 Y170.116 E17.76425
G1 X108.329 Y170.153 E17.85057
G1 X105.761 Y170.262 E17.93606
G1 X103.308 Y170.436 E18.01785
G1 X100.567 Y170.709 E18.10947
G1 X99.484 Y170.833 E18.14572
G1 X98.59 Y170.896 E18.17553
G1 X97.889 Y170.909 E18.19885
G1 X96.644 Y170.898 E18.24026
G1 X95.704 Y170.847 E18.27157
G1 X94.645 Y170.688 E18.30719
G1 X93.656 Y170.477 E18.34083
G1 X93.266 Y170.38 E18.35419
G1 X92.353 Y170.122 E18.38575
G1 X91.676 Y169.908 E18.40936
G1 X91.139 Y169.715 E18.42834
G1 X90.563 Y169.49 E18.44891
G1 X89.944 Y169.224 E18.47132
G1 X89.401 Y168.971 E18.49124
G1 X88.569 Y168.535 E18.52248
G1 X87.779 Y168.027 E18.55372
G1 X87.038 Y167.452 E18.58492
G1 X86.375 Y166.839 E18.61495
G1 X85.722 Y166.116 E18.64735
G1 X85.158 Y165.367 E18.67854
G1 X84.661 Y164.57 E18.70978
G1 X84.239 Y163.732 E18.74099
G1 X83.891 Y162.861 E18.77218
G1 X83.63 Y161.996 E18.80223
G1 X83.51 Y161.472 E18.82011
G1 X83.277 Y160.32 E18.8592
G1 X82.713 Y157.71 E18.94802
G1 X82.13 Y155.337 E19.02929
G1 X81.294 Y152.34 E19.13278
G1 X81.085 Y151.425 E19.16399
G1 X80.957 Y150.501 E19.19502
G1 X80.914 Y149.82 E19.21771
G1 X80.9 Y149.18 E19.23901
G1 X80.864 Y110.22 E20.53482
G1 X80.824 Y107.613 E20.62154
G1 X80.714 Y105.068 E20.70627
G1 X80.532 Y102.538 E20.79063
G1 X80.285 Y100.079 E20.87283
G1 X79.8 Y96.432 E20.9952
G1 X79.708 Y95.081 E21.04024
G1 X79.701 Y93.09 E21.10646
G1 X79.713 Y92.365 E21.13058
G1 X79.77 Y91.429 E21.16176
G1 X79.911 Y90.501 E21.19298
G1 X80.132 Y89.592 E21.2241
G1 X80.366 Y88.882 E21.24896
G1 X80.652 Y88.107 E21.27644
G1 X81.536 Y85.602 E21.36479
G1 X82.309 Y83.193 E21.44894
G1 X83.016 Y80.765 E21.53305
G1 X83.655 Y78.306 E21.61755
G1 X84.229 Y75.809 E21.70277
G1 X84.525 Y74.391 E21.75095
G1 X84.689 Y73.719 E21.77395
G1 X85.009 Y72.573 E21.81353
G1 X85.302 Y71.681 E21.84476
G1 X85.658 Y70.85 E21.87482
G1 X86.102 Y70.023 E21.90604
G1 X86.621 Y69.224 E21.93773
G1 X87.161 Y68.5 E21.96777
G0 F6000 X87.482 Y68.739
G1 F1200 X88.083 Y68.066 E21.99778
G1 X88.742 Y67.448 E22.02783
G1 X89.453 Y66.891 E22.05787
G1 X90.211 Y66.399 E22.08793
G1 X91.322 Y65.834 E22.12939
G1 X91.926 Y65.572 E22.15128
G1 X92.531 Y65.326 E22.17301
G1 X93.384 Y65.03 E22.20304
G1 X94.26 Y64.81 E22.23308
G1 X94.827 Y64.71 E22.25223
G1 X95.367 Y64.631 E22.27038
G1 X96.565 Y64.528 E22.31037
G1 X97.246 Y64.513 E22.33303
G1 X98.942 Y64.513 E22.38943
G1 X99.697 Y64.528 E22.41455
G1 X100.261 Y64.556 E22.43333
G1 X103.353 Y64.763 E22.5364
G1 X105.859 Y64.855 E22.61981
G1 X108.425 Y64.876 E22.70516
G1 X110.952 Y64.826 E22.78922
G1 X113.475 Y64.704 E22.87324
G1 X114.481 Y64.627 E22.90679
G1 X115.728 Y64.557 E22.94833
G1 X116.262 Y64.542 E22.9661
G1 X117.745 Y64.539 E23.01543
G1 X118.604 Y64.549 E23.044
G1 X119.318 Y64.583 E23.06777
G1 X121.815 Y64.79 E23.15111
G1 X124.347 Y64.931 E23.23545
G1 X126.884 Y65 E23.31987
G1 X129.417 Y64.998 E23.40412
G1 X131.965 Y64.923 E23.4889
G1 X135.002 Y64.742 E23.59009
G1 X135.444 Y64.725 E23.6048
G1 X136.516 Y64.71 E23.64046
G1 X138.478 Y64.719 E23.70572
G1 X139.38 Y64.763 E23.73575
G1 X140.083 Y64.854 E23.75933
G1 X140.674 Y64.951 E23.77925
G1 X141.558 Y65.136 E23.80929
G1 X142.422 Y65.399 E23.83933
G1 X143.259 Y65.738 E23.86936
G1 X144.021 Y66.125 E23.89779
G1 X144.695 Y66.513 E23.92365
G1 X145.303 Y66.887 E23.9474
G1 X146.051 Y67.394 E23.97745
G1 X146.75 Y67.965 E24.00747
G1 X147.397 Y68.595 E24.03751
G1 X147.985 Y69.281 E24.06756
G1 X148.511 Y70.015 E24.09759
G1 X148.969 Y70.793 E24.12762
G1 X149.356 Y71.609 E24.15766
G1 X149.67 Y72.456 E24.1877
G1 X149.951 Y73.525 E24.22446
G1 X150.066 Y74.118 E24.24456
G1 X150.439 Y76.338 E24.31943
G1 X150.916 Y78.909 E24.4064
G1 X151.457 Y81.435 E24.49232
G1 X151.607 Y82.325 E24.52234
G1 X151.678 Y83.259 E24.55349
G1 X151.693 Y83.898 E24.57475
G1 X151.692 Y90.032 E24.77877
G1 X151.68 Y90.747 E24.80255
G1 X151.624 Y91.649 E24.83261
G1 X151.49 Y92.542 E24.86265
G1 X151.314 Y93.286 E24.88807
G1 X151.042 Y94.272 E24.92209
G1 X150.771 Y95.206 E24.95444
G1 X150.141 Y97.624 E25.03755
G1 X149.563 Y100.139 E25.12338
G1 X149.071 Y102.591 E25.20656
G1 X148.641 Y105.108 E25.29149
G1 X148.283 Y107.619 E25.37585
G1 X147.998 Y110.126 E25.45977
G1 X147.781 Y112.664 E25.54449
G1 X147.638 Y115.21 E25.6293
G1 X147.566 Y117.753 E25.71392
G1 X147.566 Y120.286 E25.79817
G1 X147.638 Y122.82 E25.88248
G1 X147.783 Y125.382 E25.96783
G1 X147.997 Y127.898 E26.05181
G1 X148.283 Y130.406 E26.13577
G1 X148.641 Y132.92 E26.22023
G1 X149.075 Y135.457 E26.30584
G1 X149.567 Y137.905 E26.38889
G1 X150.136 Y140.383 E26.47345
G1 X150.965 Y143.542 E26.58208
G1 X151.155 Y144.425 E26.61212
G1 X151.267 Y145.321 E26.64215
G1 X151.294 Y145.824 E26.6589
G1 X151.309 Y146.462 E26.68013
G1 X151.31 Y158.64 E27.08517
G1 X151.299 Y159.513 E27.11421
G1 X151.247 Y160.415 E27.14426
G1 X151.115 Y161.308 E27.17428
G1 X150.905 Y162.186 E27.20431
G1 X150.617 Y163.043 E27.23438
G1 X150.256 Y163.87 E27.26439
G1 X149.822 Y164.662 E27.29443
G1 X149.32 Y165.413 E27.32448
G1 X148.754 Y166.117 E27.35452
G1 X148.127 Y166.767 E27.38456
G1 X147.446 Y167.36 E27.41459
G1 X146.715 Y167.89 E27.44462
G1 X145.605 Y168.525 E27.48716
G1 X144.993 Y168.815 E27.50968
G1 X144.169 Y169.165 E27.53946
G1 X143.366 Y169.466 E27.56798
G1 X142.445 Y169.764 E27.60018
G1 X141.774 Y169.954 E27.62337
G1 X141.131 Y170.114 E27.64541
G1 X140.384 Y170.274 E27.67082
G1 X139.494 Y170.424 E27.70084
G1 X138.535 Y170.496 E27.73282
G1 X137.844 Y170.509 E27.75581
G1 X136.623 Y170.499 E27.79642
G1 X135.572 Y170.436 E27.83144
G1 X133.071 Y170.156 E27.91515
G1 X130.569 Y169.943 E27.99866
G1 X128.008 Y169.798 E28.08398
G1 X125.449 Y169.725 E28.16913
G1 X124.132 Y169.716 E28.21293
G1 X110.918 Y169.716 E28.65243
G1 X108.312 Y169.753 E28.73911
G1 X105.744 Y169.862 E28.8246
G1 X103.273 Y170.037 E28.907
G1 X100.527 Y170.311 E28.99878
G1 X99.456 Y170.434 E29.03464
G1 X98.582 Y170.496 E29.06378
G1 X97.892 Y170.509 E29.08673
G1 X96.665 Y170.499 E29.12754
G1 X95.763 Y170.451 E29.15759
G1 X94.704 Y170.292 E29.1932
G1 X93.753 Y170.089 E29.22555
G1 X93.375 Y169.995 E29.2385
