;FLAVOR:Marlin
;TIME:3988
;Filament used: 3.17015m
;Layer height: 0.2
;MINX:85.518
;MINY:85.516
;MINZ:0.2
;MAXX:149.492
;MAXY:149.488
;MAXZ:25
;Generated with Cura_SteamEngine 5.2.1
M140 S50
M105
M190 S50
M104 S200
M105
M109 S200
M82 ;absolute extrusion mode
; Ender 3 Custom Start G-code
G92 E0 ; Reset Extruder
G28 ; Home all axes
G1 Z2.0 F3000 ; Move Z Axis up little to prevent scratching of Heat Bed
G1 X0.1 Y20 Z0.3 F5000.0 ; Move to start position
G1 X0.1 Y200.0 Z0.3 F1500.0 E15 ; Draw the first line
G1 X0.4 Y200.0 Z0.3 F5000.0 ; Move to side a little
G1 X0.4 Y20 Z0.3 F1500.0 E30 ; Draw the second line
G92 E0 ; Reset Extruder
G1 Z2.0 F3000 ; Move Z Axis up little to prevent scratching of Heat Bed
G1 X5 Y20 Z0.3 F5000.0 ; Move over to prevent blob squish
G92 E0
G92 E0
G1 F2700 E-5
;LAYER_COUNT:125
;LAYER:0
M107
G0 F6000 X95.152 Y94.618 Z0.2
;TYPE:SKIRT
G1 F2700 E0
G1 F1200 X96.085 Y93.745 E0.0425
G1 X96.355 Y93.503 E0.05456
G1 X96.952 Y92.99 E0.08074
G1 X97.871 Y92.245 E0.12009
G1 X98.464 Y91.798 E0.14478
G1 X99.488 Y91.068 E0.18661
G1 X100.135 Y90.64 E0.21241
G1 X100.825 Y90.206 E0.23952
G1 X101.475 Y89.818 E0.2647
G1 X102.583 Y89.206 E0.3068
G1 X102.925 Y89.028 E0.31963
G1 X103.587 Y88.701 E0.34418
G1 X104.386 Y88.329 E0.3735
G1 X105.397 Y87.894 E0.4101
G1 X106.222 Y87.57 E0.43958
G1 X106.97 Y87.297 E0.46607
G1 X107.314 Y87.18 E0.47815
G1 X108.369 Y86.844 E0.51498
G1 X109.114 Y86.633 E0.54073
G1 X110.059 Y86.393 E0.57316
G1 X110.809 Y86.221 E0.59875
G1 X111.929 Y86.002 E0.63671
G1 X112.666 Y85.88 E0.66156
G1 X113.946 Y85.712 E0.7045
G1 X114.747 Y85.631 E0.73127
G1 X115.886 Y85.554 E0.76924
G1 X116.236 Y85.537 E0.7809
G1 X117.012 Y85.517 E0.80672
G1 X117.91 Y85.516 E0.83658
G1 X118.688 Y85.534 E0.86247
G1 X119.885 Y85.602 E0.90234
G1 X120.682 Y85.671 E0.92895
G1 X121.85 Y85.81 E0.96807
G1 X122.622 Y85.924 E0.99403
G1 X123.847 Y86.148 E1.03545
G1 X124.55 Y86.297 E1.05935
G1 X124.91 Y86.382 E1.07165
G1 X126.075 Y86.681 E1.11165
G1 X126.51 Y86.805 E1.1267
G1 X127.678 Y87.174 E1.16744
G1 X128.395 Y87.422 E1.19267
G1 X129.566 Y87.874 E1.23442
G1 X130.261 Y88.166 E1.2595
G1 X131.379 Y88.679 E1.30041
G1 X132.041 Y89.005 E1.32495
G1 X133.088 Y89.565 E1.36444
G1 X133.408 Y89.745 E1.37665
G1 X134.086 Y90.147 E1.40287
G1 X134.836 Y90.616 E1.43229
G1 X135.778 Y91.245 E1.46996
G1 X136.748 Y91.946 E1.50977
G1 X137.323 Y92.392 E1.53397
G1 X138.024 Y92.961 E1.564
G1 X138.666 Y93.512 E1.59214
G1 X139.494 Y94.269 E1.62946
G1 X139.775 Y94.536 E1.64235
G1 X140.295 Y95.056 E1.66681
G1 X140.932 Y95.722 E1.69746
G1 X141.419 Y96.255 E1.72147
G1 X142.216 Y97.189 E1.76231
G1 X142.694 Y97.783 E1.78767
G1 X143.441 Y98.779 E1.82908
G1 X143.864 Y99.378 E1.85347
G1 X144.558 Y100.433 E1.89547
G1 X144.762 Y100.757 E1.9082
G1 X145.128 Y101.373 E1.93204
G1 X145.567 Y102.151 E1.96175
G1 X145.92 Y102.811 E1.98664
G1 X146.461 Y103.91 E2.02738
G1 X146.62 Y104.251 E2.0399
G1 X146.915 Y104.924 E2.06434
G1 X147.373 Y106.048 E2.10471
G1 X147.637 Y106.769 E2.13024
G1 X147.936 Y107.648 E2.16112
G1 X148.149 Y108.326 E2.18476
G1 X148.245 Y108.657 E2.19622
G1 X148.56 Y109.832 E2.23668
G1 X148.746 Y110.631 E2.26397
G1 X148.983 Y111.808 E2.3039
G1 X149.103 Y112.529 E2.32821
G1 X149.274 Y113.765 E2.36971
G1 X149.356 Y114.55 E2.39597
G1 X149.424 Y115.407 E2.42456
G1 X149.464 Y116.129 E2.44861
G1 X149.491 Y117.397 E2.49079
G1 X149.492 Y117.754 E2.50267
G1 X149.474 Y118.555 E2.52932
G1 X149.417 Y119.709 E2.56774
G1 X149.355 Y120.459 E2.59277
G1 X149.256 Y121.385 E2.62375
G1 X149.164 Y122.086 E2.64726
G1 X148.952 Y123.352 E2.68996
G1 X148.805 Y124.101 E2.71534
G1 X148.535 Y125.266 E2.75512
G1 X148.45 Y125.604 E2.76671
G1 X148.24 Y126.362 E2.79287
G1 X147.882 Y127.523 E2.83328
G1 X147.632 Y128.246 E2.85873
G1 X147.314 Y129.098 E2.88897
G1 X147.039 Y129.785 E2.91359
G1 X146.538 Y130.919 E2.95482
G1 X146.201 Y131.631 E2.98102
G1 X145.674 Y132.654 E3.01929
G1 X145.292 Y133.345 E3.04555
G1 X144.655 Y134.411 E3.08686
G1 X144.265 Y135.026 E3.11108
G1 X144.064 Y135.326 E3.12309
G1 X143.357 Y136.339 E3.16418
G1 X142.912 Y136.933 E3.18886
G1 X142.117 Y137.931 E3.2313
G1 X141.634 Y138.497 E3.25605
G1 X140.812 Y139.408 E3.29686
G1 X140.263 Y139.976 E3.32313
G1 X139.653 Y140.577 E3.35161
G1 X139.095 Y141.102 E3.3771
G1 X138.817 Y141.352 E3.38953
G1 X137.955 Y142.096 E3.4274
G1 X137.323 Y142.607 E3.45444
G1 X136.339 Y143.356 E3.49557
G1 X135.759 Y143.766 E3.51919
G1 X134.964 Y144.301 E3.55106
G1 X134.37 Y144.681 E3.57452
G1 X133.273 Y145.327 E3.61686
G1 X132.643 Y145.677 E3.64083
G1 X131.529 Y146.247 E3.68245
G1 X131.194 Y146.409 E3.69483
G1 X130.474 Y146.738 E3.72116
G1 X129.445 Y147.174 E3.75833
G1 X128.66 Y147.478 E3.78632
G1 X127.868 Y147.761 E3.8143
G1 X127.17 Y147.992 E3.83875
G1 X125.947 Y148.351 E3.88114
G1 X125.202 Y148.547 E3.90677
G1 X124.035 Y148.812 E3.94657
G1 X123.254 Y148.966 E3.97305
G1 X122.086 Y149.156 E4.0124
G1 X120.969 Y149.298 E4.04985
G1 X119.74 Y149.409 E4.0909
G1 X118.987 Y149.452 E4.11598
G1 X118.123 Y149.481 E4.14474
G1 X117.385 Y149.488 E4.16928
G1 X117.026 Y149.483 E4.18123
G1 X115.746 Y149.439 E4.22382
G1 X114.973 Y149.386 E4.24959
G1 X113.8 Y149.272 E4.28879
G1 X113.006 Y149.168 E4.31543
G1 X111.804 Y148.976 E4.35591
G1 X111.086 Y148.836 E4.38024
G1 X109.865 Y148.564 E4.42185
G1 X109.165 Y148.381 E4.44591
G1 X107.916 Y148.017 E4.48918
G1 X107.204 Y147.783 E4.51411
G1 X106.41 Y147.501 E4.54213
G1 X105.685 Y147.224 E4.56795
G1 X104.531 Y146.737 E4.60961
G1 X103.858 Y146.43 E4.63421
G1 X102.75 Y145.88 E4.67535
G1 X102.064 Y145.515 E4.7012
G1 X101.036 Y144.921 E4.74069
G1 X100.429 Y144.549 E4.76437
G1 X99.33 Y143.821 E4.80821
G1 X98.725 Y143.394 E4.83284
G1 X97.73 Y142.64 E4.87436
G1 X97.136 Y142.164 E4.89968
G1 X96.214 Y141.369 E4.94017
G1 X95.695 Y140.899 E4.96346
G1 X95.41 Y140.628 E4.97654
G1 X94.529 Y139.755 E5.01779
G1 X93.998 Y139.192 E5.04353
G1 X93.421 Y138.55 E5.07224
G1 X92.949 Y138 E5.09635
G1 X92.137 Y136.982 E5.13966
G1 X91.671 Y136.362 E5.16546
G1 X91.003 Y135.409 E5.20416
G1 X90.591 Y134.786 E5.22901
G1 X89.929 Y133.707 E5.27111
G1 X89.544 Y133.035 E5.29687
G1 X89.375 Y132.724 E5.30864
G1 X88.805 Y131.624 E5.34985
G1 X88.484 Y130.95 E5.37468
G1 X88.137 Y130.175 E5.40292
G1 X87.72 Y129.162 E5.43936
G1 X87.281 Y127.975 E5.48145
G1 X87.039 Y127.243 E5.50709
G1 X86.797 Y126.451 E5.53464
G1 X86.586 Y125.694 E5.56077
G1 X86.29 Y124.476 E5.60246
G1 X86.132 Y123.736 E5.62763
G1 X85.923 Y122.571 E5.667
G1 X85.813 Y121.836 E5.69172
G1 X85.664 Y120.54 E5.73511
G1 X85.596 Y119.734 E5.76201
G1 X85.538 Y118.612 E5.79938
G1 X85.519 Y117.851 E5.82469
G1 X85.518 Y117.49 E5.8367
G1 X85.542 Y116.241 E5.87825
G1 X85.582 Y115.482 E5.90353
G1 X85.679 Y114.267 E5.94407
G1 X85.758 Y113.585 E5.96691
G1 X85.948 Y112.266 E6.01123
G1 X86.078 Y111.537 E6.03586
G1 X86.239 Y110.737 E6.063
G1 X86.326 Y110.345 E6.07635
G1 X86.501 Y109.633 E6.10074
G1 X86.742 Y108.741 E6.13147
G1 X86.966 Y107.985 E6.1577
G1 X87.339 Y106.864 E6.19699
G1 X87.599 Y106.15 E6.22226
G1 X88.066 Y104.99 E6.26386
G1 X88.215 Y104.642 E6.27645
G1 X88.523 Y103.964 E6.30121
G1 X88.883 Y103.218 E6.32876
G1 X89.234 Y102.534 E6.35434
G1 X89.846 Y101.432 E6.39626
G1 X90.22 Y100.802 E6.42063
G1 X90.9 Y99.743 E6.46249
G1 X91.332 Y99.11 E6.48798
G1 X92.037 Y98.147 E6.52767
G1 X92.256 Y97.861 E6.53965
G1 X92.739 Y97.258 E6.56535
G1 X93.535 Y96.319 E6.60629
G1 X94.058 Y95.743 E6.63217
G1 X94.623 Y95.149 E6.65944
G1 X95.152 Y94.618 E6.68437
G0 F6000 X95.434 Y94.902
G1 F1200 X95.684 Y94.662 E6.69589
G1 X96.617 Y93.805 E6.73803
G1 X97.205 Y93.3 E6.76381
G1 X98.114 Y92.563 E6.80273
G1 X98.698 Y92.123 E6.82705
G1 X99.711 Y91.4 E6.86844
G1 X100.348 Y90.978 E6.89386
G1 X101.038 Y90.544 E6.92097
G1 X101.678 Y90.163 E6.94574
G1 X102.775 Y89.558 E6.98741
G1 X103.104 Y89.385 E6.99977
G1 X103.756 Y89.063 E7.02396
G1 X104.555 Y88.691 E7.05327
G1 X105.215 Y88.402 E7.07724
G1 X105.543 Y88.267 E7.08903
G1 X106.662 Y87.832 E7.12897
G1 X107.436 Y87.56 E7.15625
G1 X108.206 Y87.312 E7.18316
G1 X108.848 Y87.121 E7.20544
G1 X109.213 Y87.021 E7.21802
G1 X110.158 Y86.781 E7.25045
G1 X110.897 Y86.612 E7.27567
G1 X112.004 Y86.395 E7.31319
G1 X112.729 Y86.275 E7.33763
G1 X113.997 Y86.109 E7.38016
G1 X114.354 Y86.07 E7.39211
G1 X115.086 Y86.006 E7.41654
G1 X116.248 Y85.937 E7.45526
G1 X117.012 Y85.917 E7.48068
G1 X117.91 Y85.916 E7.51055
G1 X118.676 Y85.934 E7.53603
G1 X119.86 Y86.001 E7.57548
G1 X120.645 Y86.069 E7.60168
G1 X121.801 Y86.207 E7.6404
G1 X122.562 Y86.32 E7.66599
G1 X123.774 Y86.542 E7.70697
G1 X124.465 Y86.688 E7.73046
G1 X125.661 Y86.984 E7.77144
G1 X126.4 Y87.19 E7.79696
G1 X127.556 Y87.555 E7.83728
G1 X128.262 Y87.8 E7.86214
G1 X129.42 Y88.247 E7.90342
G1 X130.104 Y88.534 E7.92809
G1 X131.211 Y89.042 E7.9686
G1 X131.862 Y89.363 E7.99274
G1 X132.898 Y89.917 E8.03182
G1 X133.206 Y90.091 E8.04358
G1 X133.874 Y90.487 E8.06941
G1 X134.624 Y90.956 E8.09883
G1 X135.252 Y91.369 E8.12383
G1 X135.545 Y91.571 E8.13567
G1 X136.505 Y92.264 E8.17505
G1 X137.071 Y92.703 E8.19887
G1 X138.064 Y93.517 E8.24158
G1 X138.605 Y93.994 E8.26557
G1 X139.224 Y94.563 E8.29353
G1 X139.494 Y94.821 E8.30595
G1 X140.006 Y95.332 E8.33001
G1 X140.858 Y96.23 E8.37119
G1 X141.343 Y96.775 E8.39545
G1 X141.911 Y97.447 E8.42472
G1 X142.38 Y98.031 E8.44963
G1 X143.12 Y99.018 E8.49066
G1 X143.536 Y99.607 E8.51464
G1 X144.223 Y100.652 E8.55624
G1 X144.419 Y100.964 E8.56849
G1 X144.78 Y101.57 E8.59195
G1 X145.219 Y102.348 E8.62166
G1 X145.722 Y103.304 E8.65759
G1 X146.254 Y104.413 E8.6985
G1 X146.545 Y105.076 E8.72259
G1 X146.998 Y106.188 E8.76252
G1 X147.258 Y106.897 E8.78764
G1 X147.557 Y107.776 E8.81852
G1 X147.767 Y108.444 E8.84181
G1 X147.859 Y108.762 E8.85282
G1 X148.171 Y109.925 E8.89287
G1 X148.354 Y110.712 E8.91974
G1 X148.589 Y111.876 E8.95924
G1 X148.707 Y112.586 E8.98318
G1 X148.877 Y113.809 E9.02425
G1 X148.957 Y114.582 E9.05009
G1 X149.025 Y115.439 E9.07869
G1 X149.075 Y116.482 E9.11342
G1 X149.092 Y117.748 E9.15553
G1 X149.075 Y118.536 E9.18174
G1 X149.037 Y119.365 E9.20934
G1 X148.987 Y120.089 E9.23348
G1 X148.858 Y121.343 E9.27541
G1 X148.768 Y122.031 E9.29849
G1 X148.558 Y123.284 E9.34075
G1 X148.413 Y124.021 E9.36573
G1 X148.146 Y125.175 E9.40512
G1 X148.064 Y125.5 E9.41627
G1 X147.858 Y126.245 E9.44198
G1 X147.605 Y127.078 E9.47094
G1 X147.367 Y127.797 E9.49613
G1 X146.939 Y128.959 E9.53731
G1 X146.668 Y129.633 E9.56147
G1 X146.173 Y130.756 E9.60229
G1 X145.84 Y131.458 E9.62814
G1 X145.685 Y131.767 E9.63963
G1 X145.162 Y132.759 E9.67693
G1 X144.778 Y133.433 E9.70273
G1 X144.313 Y134.204 E9.73268
G1 X143.929 Y134.809 E9.75651
G1 X143.222 Y135.84 E9.79809
G1 X142.801 Y136.418 E9.82187
G1 X142.032 Y137.403 E9.86344
G1 X141.335 Y138.231 E9.89944
G1 X140.522 Y139.132 E9.9398
G1 X139.982 Y139.691 E9.96565
G1 X139.372 Y140.292 E9.99413
G1 X138.823 Y140.809 E10.01921
G1 X137.929 Y141.594 E10.05878
G1 X137.344 Y142.08 E10.08408
G1 X136.383 Y142.825 E10.12452
G1 X135.536 Y143.434 E10.15922
G1 X134.741 Y143.969 E10.19109
G1 X134.157 Y144.342 E10.21414
G1 X133.848 Y144.529 E10.22615
G1 X132.833 Y145.117 E10.26517
G1 X132.138 Y145.491 E10.29142
G1 X131.026 Y146.047 E10.33277
G1 X130.317 Y146.37 E10.35868
G1 X129.298 Y146.802 E10.39549
G1 X128.526 Y147.101 E10.42303
G1 X127.734 Y147.384 E10.451
G1 X127.047 Y147.611 E10.47507
G1 X125.836 Y147.967 E10.51705
G1 X125.103 Y148.16 E10.54226
G1 X123.948 Y148.422 E10.58165
G1 X123.179 Y148.573 E10.60772
G1 X122.024 Y148.761 E10.64664
G1 X121.263 Y148.863 E10.67217
G1 X119.714 Y149.01 E10.72393
G1 X118.974 Y149.052 E10.74858
G1 X118.11 Y149.081 E10.77733
G1 X117.384 Y149.088 E10.80148
G1 X117.038 Y149.083 E10.81299
G1 X115.771 Y149.04 E10.85515
G1 X115.009 Y148.988 E10.88056
G1 X113.85 Y148.875 E10.91929
G1 X113.067 Y148.773 E10.94555
G1 X111.878 Y148.583 E10.9856
G1 X111.171 Y148.445 E11.00956
G1 X109.964 Y148.176 E11.05069
G1 X109.276 Y147.996 E11.07434
G1 X108.039 Y147.636 E11.11719
G1 X107.338 Y147.406 E11.14173
G1 X106.544 Y147.124 E11.16975
G1 X105.83 Y146.851 E11.19518
G1 X104.689 Y146.369 E11.23637
G1 X104.026 Y146.067 E11.26061
G1 X102.929 Y145.522 E11.30135
G1 X102.255 Y145.163 E11.32675
G1 X101.003 Y144.434 E11.37493
G1 X100.323 Y144.005 E11.40167
G1 X99.553 Y143.489 E11.4325
G1 X98.957 Y143.069 E11.45675
G1 X97.973 Y142.322 E11.49784
G1 X97.389 Y141.853 E11.52276
G1 X97.111 Y141.619 E11.53484
G1 X96.282 Y140.894 E11.57147
G1 X95.69 Y140.343 E11.59837
G1 X94.818 Y139.479 E11.6392
G1 X94.295 Y138.925 E11.66454
G1 X93.718 Y138.283 E11.69325
G1 X93.255 Y137.742 E11.71693
G1 X93.037 Y137.475 E11.7284
G1 X92.25 Y136.472 E11.7708
G1 X91.798 Y135.854 E11.79627
G1 X91.331 Y135.181 E11.82351
G1 X90.926 Y134.567 E11.84798
G1 X90.271 Y133.499 E11.88965
G1 X89.892 Y132.838 E11.91499
G1 X89.314 Y131.746 E11.95608
G1 X88.849 Y130.787 E11.99153
G1 X88.502 Y130.012 E12.01977
G1 X88.223 Y129.348 E12.04373
G1 X87.777 Y128.174 E12.0855
G1 X87.517 Y127.424 E12.1119
G1 X87.18 Y126.335 E12.14981
G1 X86.972 Y125.589 E12.17557
G1 X86.679 Y124.383 E12.21685
G1 X86.523 Y123.655 E12.24161
G1 X86.317 Y122.503 E12.28054
G1 X86.209 Y121.78 E12.30485
G1 X86.062 Y120.496 E12.34784
G1 X86.03 Y120.154 E12.35926
G1 X85.975 Y119.388 E12.3848
G1 X85.937 Y118.592 E12.41131
G1 X85.919 Y117.844 E12.4362
G1 X85.931 Y116.601 E12.47754
G1 X85.981 Y115.512 E12.5138
G1 X86.077 Y114.31 E12.5539
G1 X86.155 Y113.64 E12.57634
G1 X86.342 Y112.334 E12.62022
G1 X86.47 Y111.616 E12.64448
G1 X86.631 Y110.816 E12.67162
G1 X86.715 Y110.438 E12.6845
G1 X86.887 Y109.737 E12.7085
G1 X87.128 Y108.845 E12.73924
G1 X87.349 Y108.101 E12.76505
G1 X87.718 Y106.992 E12.80392
G1 X88.091 Y105.988 E12.83955
G1 X88.58 Y104.805 E12.88212
G1 X88.883 Y104.138 E12.90649
G1 X89.243 Y103.392 E12.93404
G1 X89.589 Y102.718 E12.95924
G1 X90.195 Y101.628 E13.00072
G1 X90.563 Y101.009 E13.02467
G1 X90.738 Y100.729 E13.03565
G1 X91.418 Y99.688 E13.07701
G1 X91.851 Y99.071 E13.10208
G1 X92.569 Y98.109 E13.142
G1 X93.045 Y97.515 E13.16732
G1 X93.833 Y96.586 E13.20784
G1 X94.348 Y96.018 E13.23334
G1 X94.913 Y95.424 E13.26061
G1 X95.434 Y94.902 E13.28514
G0 F6000 X95.715 Y95.186
G1 F1200 X96.629 Y94.331 E13.32676
G1 X97.459 Y93.609 E13.36335
G1 X98.357 Y92.881 E13.4018
G1 X98.931 Y92.447 E13.42574
G1 X99.659 Y91.923 E13.45557
G1 X100.561 Y91.317 E13.49171
G1 X101.251 Y90.883 E13.51882
G1 X101.88 Y90.508 E13.54318
G1 X102.967 Y89.909 E13.58446
G1 X103.284 Y89.743 E13.59636
G1 X103.925 Y89.426 E13.62015
G1 X104.724 Y89.054 E13.64946
G1 X105.374 Y88.769 E13.67307
G1 X106.514 Y88.315 E13.71388
G1 X107.24 Y88.05 E13.73958
G1 X108.329 Y87.693 E13.7777
G1 X108.96 Y87.505 E13.7996
G1 X110.256 Y87.169 E13.84413
G1 X110.984 Y87.002 E13.86897
G1 X112.079 Y86.788 E13.90608
G1 X112.791 Y86.67 E13.93008
G1 X114.047 Y86.506 E13.97221
G1 X114.391 Y86.468 E13.98372
G1 X115.112 Y86.405 E14.0078
G1 X115.937 Y86.352 E14.03529
G1 X116.694 Y86.322 E14.06049
G1 X117.911 Y86.316 E14.10097
G1 X118.665 Y86.333 E14.12605
G1 X119.835 Y86.401 E14.16503
G1 X120.919 Y86.501 E14.20124
G1 X121.752 Y86.604 E14.22916
G1 X122.501 Y86.715 E14.25434
G1 X123.985 Y86.992 E14.30455
G1 X124.714 Y87.157 E14.32941
G1 X125.563 Y87.372 E14.35854
G1 X126.29 Y87.575 E14.38365
G1 X127.434 Y87.936 E14.42354
G1 X128.128 Y88.177 E14.44798
G1 X129.274 Y88.619 E14.48883
G1 X129.947 Y88.901 E14.5131
G1 X131.042 Y89.405 E14.55319
G1 X131.684 Y89.721 E14.57699
G1 X132.707 Y90.269 E14.61559
G1 X133.004 Y90.436 E14.62693
G1 X133.662 Y90.826 E14.65237
G1 X134.412 Y91.295 E14.68179
G1 X135.031 Y91.702 E14.70643
G1 X135.312 Y91.896 E14.71778
G1 X136.262 Y92.582 E14.75676
G1 X136.819 Y93.014 E14.7802
G1 X137.801 Y93.819 E14.82244
G1 X138.334 Y94.289 E14.84607
G1 X139.213 Y95.106 E14.88599
G1 X139.717 Y95.609 E14.90967
G1 X140.561 Y96.497 E14.95042
G1 X141.037 Y97.034 E14.97428
G1 X141.806 Y97.951 E15.01409
G1 X142.265 Y98.537 E15.03885
G1 X142.799 Y99.256 E15.06863
G1 X143.208 Y99.836 E15.09224
G1 X143.888 Y100.87 E15.1334
G1 X144.077 Y101.17 E15.14519
G1 X144.431 Y101.766 E15.16825
G1 X144.87 Y102.544 E15.19796
G1 X145.213 Y103.185 E15.22214
G1 X145.742 Y104.26 E15.26199
G1 X146.067 Y104.976 E15.28814
