;FLAVOR:Marlin
;TIME:7382
;Filament used: 5.5126m
;Layer height: 0.2
;MINX:91.5
;MINY:84
;MINZ:0.2
;MAXX:143.5
;MAXY:151
;MAXZ:30
;Generated with Cura_SteamEngine 5.4.0
M140 S60
M105
M190 S60
M104 S205
M105
M109 S205
M82 ;absolute extrusion mode
; Ender 3 Custom Start G-code
G92 E0 ; Reset Extruder
G28 ; Home all axes
G1 Z2.0 F3000 ; Move Z Axis up little to prevent scratching of Heat Bed
G1 X0.1 Y20 Z0.3 F5000.0 ; Move to start position
G1 X0.1 Y200.0 Z0.3 F1500.0 E15 ; Draw the first line
G1 X0.4 Y200.0 Z0.3 F5000.0 ; Move to side a little
G1 X0.4 Y20 Z0.3 F1500.0 E30 ; Draw the second line
G92 E0 ; Reset Extruder
G1 Z2.0 F3000 ; Move Z Axis up little to prevent scratching of Heat Bed
G1 X5 Y20 Z0.3 F5000.0 ; Move over to prevent blob squish
G92 E0
G92 E0
G1 F2700 E-5
;LAYER_COUNT:150
;LAYER:0
M107
G0 F6000 X94.231 Y87.765 Z0.2
;TYPE:SKIRT
G1 F2700 E0
G1 F1200 X94.956 Y87.013 E0.03474
G1 X95.692 Y86.376 E0.06712
G1 X96.424 Y85.846 E0.09718
G1 X97.321 Y85.311 E0.13191
G1 X98.199 Y84.89 E0.1643
G1 X99.112 Y84.548 E0.19673
G1 X100.049 Y84.289 E0.22906
G1 X101.016 Y84.111 E0.26176
G1 X102.155 Y84.015 E0.29978
G1 X102.812 Y84 E0.32164
G1 X131.804 Y84 E1.28592
G1 X132.684 Y84.013 E1.31519
G1 X133.656 Y84.072 E1.34758
G1 X134.619 Y84.218 E1.37997
G1 X135.566 Y84.449 E1.41239
G1 X136.454 Y84.749 E1.44357
G1 X137.346 Y85.139 E1.47595
G1 X138.229 Y85.626 E1.50949
G1 X138.98 Y86.128 E1.53953
G1 X139.795 Y86.786 E1.57437
G1 X140.493 Y87.464 E1.60674
G1 X141.129 Y88.201 E1.63911
G1 X141.699 Y88.991 E1.67151
G1 X142.161 Y89.767 E1.70155
G1 X142.615 Y90.709 E1.73633
G1 X142.944 Y91.587 E1.76752
G1 X143.213 Y92.559 E1.80106
G1 X143.39 Y93.525 E1.83373
G1 X143.485 Y94.655 E1.87144
G1 X143.5 Y95.33 E1.8939
G1 X143.499 Y139.4 E3.35967
G1 X143.488 Y140.163 E3.38505
G1 X143.431 Y141.136 E3.41747
G1 X143.286 Y142.099 E3.44986
G1 X143.057 Y143.045 E3.48223
G1 X142.746 Y143.969 E3.51466
G1 X142.354 Y144.86 E3.54704
G1 X141.886 Y145.712 E3.57937
G1 X141.364 Y146.493 E3.61061
G1 X140.731 Y147.278 E3.64415
G1 X140.106 Y147.929 E3.67417
G1 X139.317 Y148.617 E3.70899
G1 X138.557 Y149.167 E3.74019
G1 X137.69 Y149.684 E3.77376
G1 X136.812 Y150.106 E3.80616
G1 X135.901 Y150.448 E3.83853
G1 X134.962 Y150.709 E3.87094
G1 X133.996 Y150.887 E3.90361
G1 X132.845 Y150.985 E3.94203
G1 X132.17 Y151 E3.96449
G1 X121.051 Y150.999 E4.33431
G1 X118.747 Y150.96 E4.41095
G1 X116.213 Y150.956 E4.49523
G1 X114.172 Y151 E4.56313
G1 X103.049 Y150.999 E4.93308
G1 X102.316 Y150.987 E4.95747
G1 X101.344 Y150.928 E4.98986
G1 X100.381 Y150.782 E5.02225
G1 X99.434 Y150.551 E5.05467
G1 X98.546 Y150.251 E5.08585
G1 X97.654 Y149.861 E5.11823
G1 X96.771 Y149.374 E5.15177
G1 X96.02 Y148.872 E5.18181
G1 X95.205 Y148.214 E5.21665
G1 X94.507 Y147.536 E5.24902
G1 X93.871 Y146.799 E5.28139
G1 X93.301 Y146.009 E5.31379
G1 X92.839 Y145.233 E5.34383
G1 X92.385 Y144.291 E5.37861
G1 X92.056 Y143.413 E5.4098
G1 X91.787 Y142.44 E5.44337
G1 X91.61 Y141.473 E5.47607
G1 X91.514 Y140.308 E5.51495
G1 X91.5 Y139.658 E5.53657
G1 X91.501 Y95.525 E7.00444
G1 X91.512 Y94.825 E7.02773
G1 X91.57 Y93.852 E7.06015
G1 X91.716 Y92.889 E7.09254
G1 X91.946 Y91.943 E7.12492
G1 X92.259 Y91.02 E7.15734
G1 X92.651 Y90.13 E7.18969
G1 X93.121 Y89.277 E7.22208
G1 X93.664 Y88.469 E7.25446
G1 X94.231 Y87.765 E7.28452
G0 F6000 X94.543 Y88.016
G1 F1200 X95.218 Y87.315 E7.31689
G1 X95.927 Y86.7 E7.34811
G1 X96.659 Y86.17 E7.37816
G1 X97.495 Y85.671 E7.41055
G1 X98.34 Y85.264 E7.44174
G1 X99.219 Y84.933 E7.47298
G1 X100.122 Y84.682 E7.50415
G1 X101.05 Y84.51 E7.53555
G1 X102.189 Y84.414 E7.57356
G1 X102.821 Y84.4 E7.59459
G1 X131.798 Y84.4 E8.55837
G1 X132.66 Y84.412 E8.58704
G1 X133.597 Y84.468 E8.61826
G1 X134.525 Y84.607 E8.64947
G1 X135.438 Y84.828 E8.68071
G1 X136.294 Y85.116 E8.71075
G1 X137.186 Y85.506 E8.74313
G1 X138.007 Y85.959 E8.77432
G1 X138.758 Y86.461 E8.80436
G1 X139.517 Y87.073 E8.83679
G1 X140.191 Y87.726 E8.86801
G1 X140.805 Y88.435 E8.8992
G1 X141.355 Y89.196 E8.93043
G1 X141.817 Y89.972 E8.96047
G1 X142.24 Y90.849 E8.99285
G1 X142.569 Y91.727 E9.02404
G1 X142.82 Y92.632 E9.05528
G1 X142.991 Y93.559 E9.08663
G1 X143.086 Y94.689 E9.12434
G1 X143.1 Y95.33 E9.14567
G1 X143.099 Y139.395 E10.61128
G1 X143.089 Y140.14 E10.63606
G1 X143.035 Y141.077 E10.66727
G1 X142.897 Y142.006 E10.69851
G1 X142.678 Y142.918 E10.72971
G1 X142.38 Y143.808 E10.76092
G1 X142.003 Y144.668 E10.79216
G1 X141.553 Y145.49 E10.82332
G1 X141.031 Y146.271 E10.85457
G1 X140.442 Y147.001 E10.88577
G1 X139.817 Y147.652 E10.91578
G1 X139.082 Y148.293 E10.94822
G1 X138.322 Y148.843 E10.97942
G1 X137.516 Y149.324 E11.01064
G1 X136.671 Y149.732 E11.04185
G1 X135.793 Y150.063 E11.07306
G1 X134.889 Y150.316 E11.10428
G1 X133.962 Y150.488 E11.13564
G1 X132.811 Y150.586 E11.17406
G1 X132.17 Y150.6 E11.19538
G1 X121.058 Y150.599 E11.56497
G1 X118.754 Y150.56 E11.64161
G1 X116.205 Y150.556 E11.72639
G1 X114.172 Y150.6 E11.79403
G1 X103.055 Y150.599 E12.16378
G1 X102.34 Y150.588 E12.18756
G1 X101.403 Y150.532 E12.21878
G1 X100.475 Y150.393 E12.24999
G1 X99.562 Y150.172 E12.28124
G1 X98.706 Y149.884 E12.31128
G1 X97.814 Y149.494 E12.34366
G1 X96.993 Y149.041 E12.37484
G1 X96.242 Y148.539 E12.40489
G1 X95.483 Y147.927 E12.43732
G1 X94.809 Y147.274 E12.46853
G1 X94.195 Y146.565 E12.49973
G1 X93.645 Y145.804 E12.53095
G1 X93.183 Y145.028 E12.56099
G1 X92.76 Y144.151 E12.59338
G1 X92.431 Y143.273 E12.62456
G1 X92.18 Y142.368 E12.6558
G1 X92.009 Y141.44 E12.68718
G1 X91.913 Y140.275 E12.72606
G1 X91.9 Y139.658 E12.74659
G1 X91.901 Y95.531 E14.21426
G1 X91.911 Y94.848 E14.23698
G1 X91.966 Y93.911 E14.2682
G1 X92.105 Y92.983 E14.29941
G1 X92.325 Y92.071 E14.33061
G1 X92.625 Y91.181 E14.36185
G1 X93.002 Y90.322 E14.39305
G1 X93.453 Y89.5 E14.42423
G1 X93.976 Y88.72 E14.45547
G1 X94.543 Y88.016 E14.48553
G0 F6000 X94.855 Y88.267
G1 F1200 X95.481 Y87.617 E14.51555
G1 X96.162 Y87.024 E14.54558
G1 X96.894 Y86.494 E14.57564
G1 X97.669 Y86.031 E14.60567
G1 X98.482 Y85.638 E14.6357
G1 X99.327 Y85.318 E14.66575
G1 X100.196 Y85.075 E14.69577
G1 X101.084 Y84.909 E14.72581
G1 X102.223 Y84.813 E14.76383
G1 X102.83 Y84.8 E14.78402
G1 X131.793 Y84.8 E15.74734
G1 X132.637 Y84.811 E15.77541
G1 X133.539 Y84.864 E15.80546
G1 X134.432 Y84.996 E15.83549
G1 X135.31 Y85.207 E15.86552
G1 X136.166 Y85.495 E15.89556
G1 X136.993 Y85.857 E15.92559
G1 X137.785 Y86.292 E15.95564
G1 X138.536 Y86.794 E15.98568
G1 X139.239 Y87.361 E16.01572
G1 X139.889 Y87.988 E16.04576
G1 X140.481 Y88.67 E16.0758
G1 X141.011 Y89.401 E16.10583
G1 X141.473 Y90.177 E16.13587
G1 X141.866 Y90.99 E16.1659
G1 X142.184 Y91.835 E16.19593
G1 X142.427 Y92.705 E16.22597
G1 X142.592 Y93.593 E16.25602
G1 X142.687 Y94.723 E16.29373
G1 X142.7 Y95.33 E16.31393
G1 X142.699 Y139.39 E17.77937
G1 X142.69 Y140.117 E17.80355
G1 X142.639 Y141.019 E17.8336
G1 X142.508 Y141.913 E17.86365
G1 X142.299 Y142.791 E17.89367
G1 X142.013 Y143.648 E17.92372
G1 X141.652 Y144.476 E17.95376
G1 X141.22 Y145.268 E17.98377
G1 X140.719 Y146.02 E18.01382
G1 X140.153 Y146.724 E18.04386
G1 X139.528 Y147.375 E18.07388
G1 X138.847 Y147.969 E18.10394
G1 X138.116 Y148.5 E18.13399
G1 X137.342 Y148.964 E18.164
G1 X136.529 Y149.358 E18.19405
G1 X135.685 Y149.678 E18.22407
G1 X134.815 Y149.923 E18.25413
G1 X133.928 Y150.089 E18.28415
G1 X132.777 Y150.187 E18.32257
G1 X132.17 Y150.2 E18.34276
G1 X121.065 Y150.199 E18.71212
G1 X118.761 Y150.16 E18.78876
G1 X116.197 Y150.156 E18.87404
G1 X114.172 Y150.2 E18.9414
G1 X103.061 Y150.199 E19.31096
G1 X102.363 Y150.189 E19.33418
G1 X101.461 Y150.136 E19.36423
G1 X100.568 Y150.004 E19.39425
G1 X99.69 Y149.793 E19.42429
G1 X98.834 Y149.505 E19.45432
G1 X98.007 Y149.143 E19.48435
G1 X97.215 Y148.708 E19.5144
G1 X96.464 Y148.206 E19.54445
G1 X95.761 Y147.639 E19.57449
G1 X95.111 Y147.012 E19.60453
G1 X94.519 Y146.33 E19.63456
G1 X93.989 Y145.599 E19.6646
G1 X93.527 Y144.823 E19.69463
G1 X93.134 Y144.01 E19.72467
G1 X92.816 Y143.165 E19.7547
G1 X92.573 Y142.295 E19.78474
G1 X92.408 Y141.407 E19.81478
G1 X92.313 Y140.266 E19.85286
G1 X92.3 Y139.658 E19.87309
G1 X92.301 Y95.536 E21.34059
G1 X92.31 Y94.871 E21.36271
G1 X92.362 Y93.969 E21.39276
G1 X92.494 Y93.076 E21.42279
G1 X92.704 Y92.198 E21.45281
G1 X92.991 Y91.341 E21.48287
G1 X93.353 Y90.514 E21.5129
G1 X93.786 Y89.722 E21.54292
G1 X94.288 Y88.971 E21.57296
G1 X94.855 Y88.267 E21.60303
G1 F2700 E16.60303
;MESH:zuhanyfuggony_nyereg.stl
G0 F6000 X101.835 Y95.42
G0 X113.898 Y139.4
;TYPE:WALL-INNER
G1 F2700 E21.60303
G1 F1200 X113.898 Y120.42 E22.23431
G1 X114.017 Y120.136 E22.24455
G1 X114.112 Y120.037 E22.24911
G1 X114.364 Y119.898 E22.25868
G1 X120.636 Y119.898 E22.46729
G1 X120.888 Y120.037 E22.47686
G1 X121.056 Y120.266 E22.48631
G1 X121.097 Y120.417 E22.49151
G1 X121.102 Y139.4 E23.12289
G1 X131.9 Y139.4 E23.48203
G1 X131.9 Y95.601 E24.9388
G1 X103.101 Y95.601 E25.89665
G1 X103.1 Y139.4 E27.35341
G1 X113.898 Y139.4 E27.71256
G0 F6000 X114.298 Y139.8
;TYPE:WALL-OUTER
G1 F1200 X114.3 Y120.462 E28.35574
G1 X114.337 Y120.376 E28.35886
G1 X114.454 Y120.301 E28.36348
G1 X120.546 Y120.301 E28.5661
G1 X120.663 Y120.376 E28.57072
G1 X120.696 Y120.444 E28.57324
G1 X120.702 Y139.8 E29.21702
G1 X132.3 Y139.8 E29.60277
G1 X132.3 Y95.201 E31.08614
G1 X102.701 Y95.201 E32.07061
G1 X102.7 Y139.8 E33.55397
G1 X114.298 Y139.8 E33.93972
G0 F6000 X114.028 Y139.53
G0 X113.798 Y139.04
G0 X113.538 Y139.04
;TYPE:SKIN
G1 F1200 X103.46 Y139.04 E34.27492
G1 X103.461 Y95.962 E35.7077
G1 X131.54 Y95.962 E36.64161
G1 X131.54 Y139.04 E38.07439
G1 X121.462 Y139.04 E38.40959
G1 X121.454 Y120.365 E39.03072
G1 X121.28 Y119.926 E39.04643
G1 X120.97 Y119.635 E39.06057
G1 X120.567 Y119.538 E39.07436
G1 X114.433 Y119.538 E39.27837
G1 X114.14 Y119.607 E39.28838
G1 X113.884 Y119.758 E39.29827
G1 X113.718 Y119.937 E39.30639
G1 X113.54 Y120.368 E39.3219
G1 X113.538 Y139.04 E39.94293
G0 F6000 X113.798 Y139.04
G0 X103.272 Y139.228
G0 X103.201 Y138.837
G0 X103.766 Y138.839
G1 F1200 X103.659 Y138.732 E39.94797
G0 F6000 X103.659 Y138.166
G1 F1200 X104.332 Y138.839 E39.97962
G0 F6000 X104.897 Y138.839
G1 F1200 X103.659 Y137.6 E40.03788
G0 F6000 X103.659 Y137.035
G1 F1200 X105.463 Y138.839 E40.12273
G0 F6000 X106.029 Y138.839
G1 F1200 X103.659 Y136.469 E40.23421
G0 F6000 X103.659 Y135.903
G1 F1200 X106.594 Y138.839 E40.37229
G0 F6000 X107.16 Y138.839
G1 F1200 X103.659 Y135.338 E40.53696
G0 F6000 X103.659 Y134.772
G1 F1200 X107.726 Y138.839 E40.72826
G0 F6000 X108.291 Y138.839
G1 F1200 X103.659 Y134.206 E40.94616
G0 F6000 X103.659 Y133.641
G1 F1200 X108.857 Y138.839 E41.19066
G0 F6000 X109.423 Y138.839
G1 F1200 X103.659 Y133.075 E41.46178
G0 F6000 X103.659 Y132.509
G1 F1200 X109.989 Y138.839 E41.75952
G0 F6000 X110.554 Y138.839
G1 F1200 X103.659 Y131.944 E42.08384
G0 F6000 X103.659 Y131.378
G1 F1200 X111.12 Y138.839 E42.43478
G0 F6000 X111.686 Y138.839
G1 F1200 X103.659 Y130.812 E42.81235
G0 F6000 X103.659 Y130.246
G1 F1200 X112.251 Y138.839 E43.21652
G0 F6000 X112.817 Y138.839
G1 F1200 X103.659 Y129.681 E43.64728
G0 F6000 X103.659 Y129.115
G1 F1200 X113.338 Y138.794 E44.10255
G0 F6000 X113.338 Y138.228
G1 F1200 X103.659 Y128.549 E44.55782
G0 F6000 X103.659 Y127.984
G1 F1200 X113.338 Y137.663 E45.01309
G0 F6000 X113.338 Y137.097
G1 F1200 X103.659 Y127.418 E45.46836
G0 F6000 X103.659 Y126.852
G1 F1200 X113.338 Y136.531 E45.92363
G0 F6000 X113.339 Y135.966
G1 F1200 X103.659 Y126.287 E46.37893
G0 F6000 X103.659 Y125.721
G1 F1200 X113.339 Y135.401 E46.83424
G0 F6000 X113.339 Y134.835
G1 F1200 X103.659 Y125.155 E47.28956
G0 F6000 X103.659 Y124.59
G1 F1200 X113.339 Y134.269 E47.74485
G0 F6000 X113.34 Y133.704
G1 F1200 X103.659 Y124.024 E48.2002
G0 F6000 X103.659 Y123.458
G1 F1200 X113.34 Y133.139 E48.65556
G0 F6000 X113.34 Y132.573
G1 F1200 X103.659 Y122.893 E49.1109
G0 F6000 X103.659 Y122.327
G1 F1200 X113.34 Y132.007 E49.56624
G0 F6000 X113.34 Y131.442
G1 F1200 X103.659 Y121.761 E50.02161
G0 F6000 X103.659 Y121.195
G1 F1200 X113.34 Y130.876 E50.47697
G0 F6000 X113.34 Y130.311
G1 F1200 X103.659 Y120.63 E50.93234
G0 F6000 X103.659 Y120.064
G1 F1200 X113.34 Y129.745 E51.3877
G0 F6000 X113.341 Y129.18
G1 F1200 X103.659 Y119.498 E51.84311
G0 F6000 X103.659 Y118.933
G1 F1200 X113.341 Y128.614 E52.2985
G0 F6000 X113.341 Y128.049
G1 F1200 X103.659 Y118.367 E52.75391
G0 F6000 X103.659 Y117.801
G1 F1200 X113.341 Y127.483 E53.20932
G0 F6000 X113.342 Y126.918
G1 F1200 X103.659 Y117.236 E53.66476
G0 F6000 X103.659 Y116.67
G1 F1200 X113.342 Y126.352 E54.12019
G0 F6000 X113.342 Y125.787
G1 F1200 X103.659 Y116.104 E54.57565
G0 F6000 X103.659 Y115.539
G1 F1200 X113.342 Y125.221 E55.03109
G0 F6000 X113.342 Y124.656
G1 F1200 X103.659 Y114.973 E55.48655
G0 F6000 X103.659 Y114.407
G1 F1200 X113.342 Y124.09 E55.942
G0 F6000 X113.342 Y123.525
G1 F1200 X103.659 Y113.842 E56.39746
G0 F6000 X103.659 Y113.276
G1 F1200 X113.342 Y122.959 E56.85292
G0 F6000 X113.343 Y122.394
G1 F1200 X103.659 Y112.71 E57.30843
G0 F6000 X103.659 Y112.145
G1 F1200 X113.343 Y121.828 E57.76391
G0 F6000 X113.343 Y121.263
G1 F1200 X103.659 Y111.579 E58.21942
G0 F6000 X103.659 Y111.013
G1 F1200 X113.343 Y120.697 E58.67492
G0 F6000 X113.396 Y120.184
G1 F1200 X103.659 Y110.447 E59.13292
G0 F6000 X103.659 Y109.882
G1 F1200 X113.573 Y119.795 E59.59922
G0 F6000 X113.876 Y119.532
G1 F1200 X103.659 Y109.316 E60.07977
G0 F6000 X103.659 Y108.75
G1 F1200 X114.276 Y119.367 E60.57916
G0 F6000 X114.815 Y119.34
G1 F1200 X103.659 Y108.185 E61.10389
G0 F6000 X103.659 Y107.619
G1 F1200 X115.38 Y119.34 E61.65521
G0 F6000 X115.946 Y119.34
G1 F1200 X103.659 Y107.053 E62.23315
G0 F6000 X103.659 Y106.488
G1 F1200 X116.511 Y119.339 E62.83764
G0 F6000 X117.077 Y119.339
G1 F1200 X103.659 Y105.922 E63.46876
G0 F6000 X103.659 Y105.356
G1 F1200 X117.642 Y119.339 E64.12648
G0 F6000 X118.208 Y119.339
G1 F1200 X103.659 Y104.791 E64.8108
G0 F6000 X103.659 Y104.225
G1 F1200 X118.773 Y119.339 E65.52171
G0 F6000 X119.339 Y119.339
G1 F1200 X103.659 Y103.659 E66.25925
G0 F6000 X103.659 Y103.094
G1 F1200 X119.904 Y119.339 E67.02337
G0 F6000 X120.47 Y119.339
G1 F1200 X103.659 Y102.528 E67.8141
G0 F6000 X103.659 Y101.962
G1 F1200 X131.34 Y129.643 E69.11613
G0 F6000 X131.34 Y130.208
G1 F1200 X121.65 Y120.519 E69.5719
G0 F6000 X121.65 Y121.084
G1 F1200 X131.34 Y130.774 E70.02769
G0 F6000 X131.34 Y131.34
G1 F1200 X121.651 Y121.651 E70.48343
G0 F6000 X121.651 Y122.217
G1 F1200 X131.34 Y131.905 E70.93914
G0 F6000 X131.34 Y132.471
G1 F1200 X121.652 Y122.783 E71.39484
G0 F6000 X121.652 Y123.349
G1 F1200 X131.34 Y133.037 E71.85053
G0 F6000 X131.34 Y133.602
G1 F1200 X121.652 Y123.915 E72.3062
G0 F6000 X121.652 Y124.481
G1 F1200 X131.34 Y134.168 E72.76187
G0 F6000 X131.34 Y134.734
G1 F1200 X121.653 Y125.047 E73.21752
G0 F6000 X121.653 Y125.613
G1 F1200 X131.34 Y135.299 E73.67314
G0 F6000 X131.34 Y135.865
G1 F1200 X121.654 Y126.179 E74.12874
G0 F6000 X121.654 Y126.745
G1 F1200 X131.34 Y136.431 E74.58434
G0 F6000 X131.34 Y136.996
G1 F1200 X121.654 Y127.311 E75.03992
G0 F6000 X121.654 Y127.877
G1 F1200 X131.34 Y137.562 E75.49549
G0 F6000 X131.34 Y138.128
G1 F1200 X121.655 Y128.443 E75.95105
G0 F6000 X121.655 Y129.009
G1 F1200 X131.34 Y138.694 E76.4066
G0 F6000 X130.919 Y138.839
G1 F1200 X121.656 Y129.575 E76.84233
G0 F6000 X121.656 Y130.141
G1 F1200 X130.353 Y138.839 E77.25143
G0 F6000 X129.788 Y138.839
G1 F1200 X121.656 Y130.707 E77.63393
G0 F6000 X121.657 Y131.273
G1 F1200 X129.222 Y138.839 E77.98979
G0 F6000 X128.656 Y138.839
G1 F1200 X121.657 Y131.839 E78.31903
G0 F6000 X121.657 Y132.405
G1 F1200 X128.09 Y138.839 E78.62164
G0 F6000 X127.525 Y138.839
G1 F1200 X121.657 Y132.971 E78.89765
G0 F6000 X121.658 Y133.537
G1 F1200 X126.959 Y138.839 E79.14702
G0 F6000 X126.393 Y138.839
G1 F1200 X121.658 Y134.103 E79.36976
G0 F6000 X121.659 Y134.669
G1 F1200 X125.828 Y138.839 E79.56588
G0 F6000 X125.262 Y138.839
G1 F1200 X121.659 Y135.235 E79.73538
G0 F6000 X121.659 Y135.801
G1 F1200 X124.696 Y138.839 E79.87825
G0 F6000 X124.131 Y138.839
G1 F1200 X121.659 Y136.367 E79.99453
G0 F6000 X121.66 Y136.934
G1 F1200 X123.565 Y138.839 E80.08413
G0 F6000 X122.999 Y138.839
G1 F1200 X121.66 Y137.499 E80.14714
