;FLAVOR:Marlin
;TIME:1825
;Filament used: 1.16111m
;Layer height: 0.2
;MINX:93.477
;MINY:93.532
;MINZ:0.2
;MAXX:141.523
;MAXY:141.468
;MAXZ:13
;Generated with Cura_SteamEngine 4.11.0
M140 S55
M105
M190 S55
M104 S205
M105
M109 S205
M82 ;absolute extrusion mode
; Ender 3 Custom Start G-code
G92 E0 ; Reset Extruder
G28 ; Home all axes
G1 Z2.0 F3000 ; Move Z Axis up little to prevent scratching of Heat Bed
G1 X0.1 Y20 Z0.3 F5000.0 ; Move to start position
G1 X0.1 Y200.0 Z0.3 F1500.0 E15 ; Draw the first line
G1 X0.4 Y200.0 Z0.3 F5000.0 ; Move to side a little
G1 X0.4 Y20 Z0.3 F1500.0 E30 ; Draw the second line
G92 E0 ; Reset Extruder
G1 Z2.0 F3000 ; Move Z Axis up little to prevent scratching of Heat Bed
G1 X5 Y20 Z0.3 F5000.0 ; Move over to prevent blob squish
G92 E0
G92 E0
G1 F2700 E-5
;LAYER_COUNT:65
;LAYER:0
M107
G0 F6000 X100.661 Y100.397 Z0.2
;TYPE:SKIRT
G1 F2700 E0
G1 F1200 X101.326 Y99.736 E0.03119
G1 X102.109 Y99.084 E0.06507
G1 X102.946 Y98.451 E0.09998
G1 X103.934 Y97.73 E0.14066
G1 X104.616 Y97.249 E0.16842
G1 X105.406 Y96.743 E0.19962
G1 X106.257 Y96.296 E0.23159
G1 X107.22 Y95.843 E0.26699
G1 X107.427 Y95.748 E0.27456
G1 X108.452 Y95.293 E0.31186
G1 X108.959 Y95.076 E0.3302
G1 X109.236 Y94.962 E0.34017
G1 X109.443 Y94.88 E0.34757
G1 X110.329 Y94.572 E0.37877
G1 X111.039 Y94.384 E0.4032
G1 X111.963 Y94.174 E0.43472
G1 X113.284 Y93.894 E0.47963
G1 X113.933 Y93.765 E0.50164
G1 X114.859 Y93.622 E0.5328
G1 X115.85 Y93.556 E0.56583
G1 X116.917 Y93.534 E0.60133
G1 X117.154 Y93.532 E0.60921
G1 X118.354 Y93.534 E0.64913
G1 X118.965 Y93.543 E0.66945
G1 X119.901 Y93.597 E0.70063
G1 X120.87 Y93.738 E0.7332
G1 X121.889 Y93.933 E0.76771
G1 X122.108 Y93.977 E0.77514
G1 X123.289 Y94.229 E0.8153
G1 X123.931 Y94.376 E0.83721
G1 X124.836 Y94.625 E0.86843
G1 X125.747 Y94.962 E0.90073
G1 X126.701 Y95.364 E0.93517
G1 X126.9 Y95.45 E0.94238
G1 X127.942 Y95.914 E0.98031
G1 X128.554 Y96.195 E1.00271
G1 X129.389 Y96.623 E1.03392
G1 X130.259 Y97.171 E1.06812
G1 X131.146 Y97.79 E1.10409
G1 X131.319 Y97.913 E1.11115
G1 X132.215 Y98.566 E1.14803
G1 X132.765 Y98.978 E1.17089
G1 X133.491 Y99.572 E1.20209
G1 X134.191 Y100.254 E1.23459
G1 X134.894 Y101.003 E1.26876
G1 X135.053 Y101.176 E1.27657
G1 X135.872 Y102.089 E1.31737
G1 X136.292 Y102.57 E1.3386
G1 X136.878 Y103.302 E1.36979
G1 X137.417 Y104.109 E1.40207
G1 X137.946 Y104.983 E1.43605
G1 X138.059 Y105.175 E1.44346
G1 X138.652 Y106.203 E1.48293
G1 X138.97 Y106.771 E1.50458
G1 X139.393 Y107.609 E1.5358
G1 X139.765 Y108.542 E1.56921
G1 X140.119 Y109.563 E1.60515
G1 X140.186 Y109.762 E1.61214
G1 X140.538 Y110.847 E1.65007
G1 X140.739 Y111.497 E1.6727
G1 X140.978 Y112.404 E1.7039
G1 X141.147 Y113.397 E1.7374
G1 X141.271 Y114.4 E1.77102
G1 X141.403 Y115.631 E1.81219
G1 X141.478 Y116.444 E1.83935
G1 X141.523 Y117.381 E1.87055
G1 X141.484 Y118.358 E1.90307
G1 X141.392 Y119.451 E1.93955
G1 X141.37 Y119.683 E1.9473
G1 X141.249 Y120.821 E1.98537
G1 X141.172 Y121.464 E2.00691
G1 X141.021 Y122.39 E2.03811
G1 X140.774 Y123.356 E2.07128
G1 X140.469 Y124.359 E2.10614
G1 X140.41 Y124.547 E2.1127
G1 X140.045 Y125.67 E2.15197
G1 X139.84 Y126.274 E2.17319
G1 X139.501 Y127.149 E2.2044
G1 X139.058 Y128.049 E2.23776
G1 X138.53 Y129.007 E2.27414
G1 X138.417 Y129.207 E2.28178
G1 X137.928 Y130.052 E2.31425
G1 X137.498 Y130.771 E2.34212
G1 X136.982 Y131.554 E2.37331
G1 X136.388 Y132.305 E2.40516
G1 X135.709 Y133.091 E2.4397
G1 X135.567 Y133.252 E2.44684
G1 X134.83 Y134.07 E2.48346
G1 X134.339 Y134.602 E2.50754
G1 X133.675 Y135.264 E2.53873
G1 X132.891 Y135.916 E2.57264
G1 X132.054 Y136.549 E2.60755
G1 X131.066 Y137.27 E2.64823
G1 X130.384 Y137.751 E2.67598
G1 X129.594 Y138.257 E2.70719
G1 X128.743 Y138.704 E2.73916
G1 X127.78 Y139.157 E2.77455
G1 X127.578 Y139.249 E2.78194
G1 X126.549 Y139.707 E2.8194
G1 X126.034 Y139.927 E2.83803
G1 X125.764 Y140.038 E2.84773
G1 X125.557 Y140.12 E2.85514
G1 X124.671 Y140.428 E2.88634
G1 X123.961 Y140.616 E2.91077
G1 X123.037 Y140.826 E2.94228
G1 X121.716 Y141.106 E2.9872
G1 X121.067 Y141.235 E3.0092
G1 X120.141 Y141.378 E3.04037
G1 X119.15 Y141.444 E3.0734
G1 X118.083 Y141.466 E3.1089
G1 X117.846 Y141.468 E3.11678
G1 X116.646 Y141.466 E3.15669
G1 X116.035 Y141.457 E3.17702
G1 X115.099 Y141.403 E3.2082
G1 X114.125 Y141.261 E3.24094
G1 X112.893 Y141.023 E3.28267
G1 X111.711 Y140.771 E3.32287
G1 X111.069 Y140.624 E3.34477
G1 X110.164 Y140.375 E3.37599
G1 X109.255 Y140.039 E3.40823
G1 X108.298 Y139.636 E3.44276
G1 X108.094 Y139.548 E3.45015
G1 X107.058 Y139.086 E3.48788
G1 X106.446 Y138.805 E3.51028
G1 X105.611 Y138.377 E3.54149
G1 X104.741 Y137.829 E3.57569
G1 X103.854 Y137.21 E3.61166
G1 X103.676 Y137.083 E3.61893
G1 X102.78 Y136.43 E3.65581
G1 X102.24 Y136.026 E3.67824
G1 X101.514 Y135.432 E3.70944
G1 X100.809 Y134.746 E3.74216
G1 X100.106 Y133.997 E3.77632
G1 X99.947 Y133.824 E3.78414
G1 X99.128 Y132.911 E3.82493
G1 X98.708 Y132.43 E3.84617
G1 X98.122 Y131.698 E3.87736
G1 X97.583 Y130.891 E3.90963
G1 X97.054 Y130.017 E3.94361
G1 X96.941 Y129.825 E3.95102
G1 X96.348 Y128.797 E3.9905
G1 X96.03 Y128.229 E4.01215
G1 X95.607 Y127.391 E4.04337
G1 X95.235 Y126.458 E4.07678
G1 X94.881 Y125.437 E4.11272
G1 X94.501 Y124.272 E4.15347
G1 X94.263 Y123.508 E4.18009
G1 X94.024 Y122.601 E4.21129
G1 X93.853 Y121.603 E4.24496
G1 X93.729 Y120.6 E4.27858
G1 X93.597 Y119.369 E4.31976
G1 X93.522 Y118.556 E4.34691
G1 X93.477 Y117.619 E4.37811
G1 X93.516 Y116.642 E4.41063
G1 X93.608 Y115.549 E4.44711
G1 X93.631 Y115.309 E4.45513
G1 X93.752 Y114.179 E4.49293
G1 X93.827 Y113.547 E4.5141
G1 X93.977 Y112.621 E4.5453
G1 X94.227 Y111.64 E4.57897
G1 X94.59 Y110.452 E4.62029
G1 X94.956 Y109.326 E4.65967
G1 X95.16 Y108.725 E4.68078
G1 X95.499 Y107.851 E4.71196
G1 X95.944 Y106.948 E4.74544
G1 X96.473 Y105.989 E4.78187
G1 X96.584 Y105.793 E4.78936
G1 X97.182 Y104.762 E4.829
G1 X97.505 Y104.224 E4.84987
G1 X98.022 Y103.441 E4.88108
G1 X98.612 Y102.695 E4.91271
G1 X99.434 Y101.746 E4.95447
G1 X100.181 Y100.917 E4.99159
G1 X100.661 Y100.397 E5.01512
G0 F6000 X100.955 Y100.668
G1 F1200 X101.608 Y100.019 E5.04575
G1 X102.35 Y99.404 E5.0778
G1 X103.343 Y98.655 E5.11917
G1 X104.315 Y97.949 E5.15913
G1 X104.846 Y97.576 E5.18071
G1 X105.622 Y97.08 E5.21134
G1 X106.427 Y96.658 E5.24157
G1 X107.39 Y96.205 E5.27697
G1 X107.59 Y96.114 E5.28428
G1 X108.609 Y95.661 E5.32137
G1 X109.116 Y95.444 E5.33971
G1 X109.383 Y95.334 E5.34931
G1 X109.59 Y95.252 E5.35672
G1 X110.46 Y94.95 E5.38735
G1 X111.128 Y94.774 E5.41032
G1 X112.046 Y94.565 E5.44164
G1 X113.361 Y94.286 E5.48635
G1 X114.01 Y94.157 E5.50836
G1 X114.92 Y94.017 E5.53898
G1 X115.858 Y93.956 E5.57024
G1 X116.925 Y93.934 E5.60574
G1 X117.154 Y93.932 E5.61336
G1 X118.348 Y93.934 E5.65307
G1 X118.959 Y93.943 E5.67339
G1 X119.878 Y93.997 E5.70401
G1 X120.795 Y94.131 E5.73484
G1 X122.025 Y94.368 E5.7765
G1 X123.2 Y94.619 E5.81646
G1 X123.842 Y94.766 E5.83837
G1 X124.73 Y95.011 E5.869
G1 X125.592 Y95.331 E5.89959
G1 X126.737 Y95.815 E5.94093
G1 X127.775 Y96.278 E5.97873
G1 X128.387 Y96.559 E6.00113
G1 X129.206 Y96.979 E6.03175
G1 X130.03 Y97.499 E6.06415
G1 X130.917 Y98.118 E6.10013
G1 X131.084 Y98.237 E6.10695
G1 X131.975 Y98.886 E6.14361
G1 X132.525 Y99.298 E6.16647
G1 X133.237 Y99.882 E6.1971
G1 X133.899 Y100.528 E6.22786
G1 X134.602 Y101.277 E6.26203
G1 X134.755 Y101.444 E6.26956
G1 X135.571 Y102.352 E6.31016
G1 X135.991 Y102.833 E6.3314
G1 X136.565 Y103.552 E6.362
G1 X137.074 Y104.316 E6.39254
G1 X137.603 Y105.19 E6.42652
G1 X137.712 Y105.375 E6.43366
G1 X138.303 Y106.399 E6.47298
G1 X138.621 Y106.967 E6.49463
G1 X139.036 Y107.789 E6.52526
G1 X139.387 Y108.673 E6.55689
G1 X139.806 Y109.886 E6.59958
G1 X140.156 Y110.965 E6.63731
G1 X140.357 Y111.615 E6.65993
G1 X140.59 Y112.506 E6.69057
G1 X140.75 Y113.446 E6.72228
G1 X140.895 Y114.629 E6.76192
G1 X141.006 Y115.673 E6.79684
G1 X141.08 Y116.48 E6.82379
G1 X141.123 Y117.399 E6.85439
G1 X141.086 Y118.324 E6.88518
G1 X140.994 Y119.417 E6.92167
G1 X140.868 Y120.626 E6.9621
G1 X140.775 Y121.416 E6.98855
G1 X140.626 Y122.325 E7.01919
G1 X140.391 Y123.24 E7.05061
G1 X140.03 Y124.424 E7.09178
G1 X139.667 Y125.542 E7.13088
G1 X139.462 Y126.146 E7.15209
G1 X139.128 Y127.004 E7.18271
G1 X138.707 Y127.856 E7.21432
G1 X138.179 Y128.814 E7.2507
G1 X138.071 Y129.006 E7.25803
G1 X137.498 Y129.993 E7.29599
G1 X137.155 Y130.565 E7.31817
G1 X136.648 Y131.334 E7.34881
G1 X136.085 Y132.043 E7.37892
G1 X135.269 Y132.985 E7.42037
G1 X134.536 Y133.799 E7.4568
G1 X134.045 Y134.331 E7.48088
G1 X133.392 Y134.98 E7.5115
G1 X132.65 Y135.596 E7.54358
G1 X131.657 Y136.345 E7.58495
G1 X130.685 Y137.051 E7.62491
G1 X130.154 Y137.424 E7.64649
G1 X129.378 Y137.92 E7.67712
G1 X128.573 Y138.342 E7.70735
G1 X127.61 Y138.795 E7.74275
G1 X127.415 Y138.884 E7.74988
G1 X126.392 Y139.339 E7.78711
G1 X125.877 Y139.559 E7.80574
G1 X125.617 Y139.666 E7.81509
G1 X125.41 Y139.748 E7.8225
G1 X124.54 Y140.05 E7.85313
G1 X123.872 Y140.226 E7.8761
G1 X122.954 Y140.435 E7.90742
G1 X121.639 Y140.714 E7.95213
G1 X120.99 Y140.843 E7.97414
G1 X120.08 Y140.983 E8.00476
G1 X119.142 Y141.044 E8.03602
G1 X118.075 Y141.066 E8.07152
G1 X117.846 Y141.068 E8.07914
G1 X116.652 Y141.066 E8.11885
G1 X116.041 Y141.057 E8.13917
G1 X115.122 Y141.003 E8.16979
G1 X114.201 Y140.868 E8.20075
G1 X113.179 Y140.672 E8.23536
G1 X112.976 Y140.631 E8.24225
G1 X111.8 Y140.381 E8.28224
G1 X111.158 Y140.234 E8.30415
G1 X110.27 Y139.989 E8.33478
G1 X109.41 Y139.67 E8.36529
G1 X108.453 Y139.267 E8.39983
G1 X108.257 Y139.182 E8.40693
G1 X107.225 Y138.722 E8.44451
G1 X106.613 Y138.441 E8.46691
G1 X105.794 Y138.021 E8.49753
G1 X104.97 Y137.501 E8.52993
G1 X104.083 Y136.882 E8.56591
G1 X103.911 Y136.759 E8.57294
G1 X103.02 Y136.11 E8.6096
G1 X102.48 Y135.706 E8.63203
G1 X101.768 Y135.123 E8.66264
G1 X101.101 Y134.472 E8.69364
G1 X100.398 Y133.723 E8.72781
G1 X100.245 Y133.556 E8.73534
G1 X99.429 Y132.648 E8.77594
G1 X99.009 Y132.167 E8.79718
G1 X98.435 Y131.448 E8.82778
G1 X97.926 Y130.684 E8.85832
G1 X97.397 Y129.81 E8.8923
G1 X97.288 Y129.625 E8.89944
G1 X96.697 Y128.601 E8.93876
G1 X96.379 Y128.033 E8.96041
G1 X95.964 Y127.211 E8.99104
G1 X95.613 Y126.327 E9.02267
G1 X95.259 Y125.306 E9.05862
G1 X95.192 Y125.107 E9.0656
G1 X94.838 Y124.013 E9.10384
G1 X94.645 Y123.39 E9.12554
G1 X94.411 Y122.499 E9.15618
G1 X94.25 Y121.554 E9.18806
G1 X94.105 Y120.371 E9.2277
G1 X93.994 Y119.327 E9.26262
G1 X93.92 Y118.52 E9.28957
G1 X93.877 Y117.601 E9.32017
G1 X93.914 Y116.676 E9.35096
G1 X94.006 Y115.583 E9.38745
G1 X94.028 Y115.351 E9.3952
G1 X94.149 Y114.226 E9.43283
G1 X94.224 Y113.594 E9.454
G1 X94.372 Y112.685 E9.48463
G1 X94.609 Y111.756 E9.51652
G1 X94.914 Y110.754 E9.55135
G1 X95.287 Y109.597 E9.59179
G1 X95.538 Y108.854 E9.61787
G1 X95.872 Y107.996 E9.64849
G1 X96.294 Y107.141 E9.68021
G1 X96.823 Y106.182 E9.71663
G1 X96.93 Y105.993 E9.72386
G1 X97.438 Y105.115 E9.7576
G1 X97.848 Y104.43 E9.78415
G1 X98.356 Y103.662 E9.81477
G1 X98.915 Y102.957 E9.8447
G1 X99.594 Y102.171 E9.87925
G1 X99.732 Y102.014 E9.8862
G1 X100.475 Y101.188 E9.92315
G1 X100.955 Y100.668 E9.94669
G0 F6000 X101.249 Y100.94
G1 F1200 X101.89 Y100.304 E9.97672
G1 X102.591 Y99.723 E10.007
G1 X103.578 Y98.978 E10.04813
G1 X104.545 Y98.276 E10.08788
G1 X105.076 Y97.903 E10.10946
G1 X105.837 Y97.418 E10.13947
G1 X106.597 Y97.02 E10.16801
G1 X107.56 Y96.567 E10.2034
G1 X107.752 Y96.479 E10.21043
G1 X108.766 Y96.029 E10.24733
G1 X109.273 Y95.812 E10.26567
G1 X109.53 Y95.706 E10.27492
G1 X109.737 Y95.624 E10.28232
G1 X110.591 Y95.329 E10.31237
G1 X111.218 Y95.164 E10.33394
G1 X111.978 Y94.99 E10.35987
G1 X113.439 Y94.679 E10.40955
G1 X114.088 Y94.55 E10.43156
G1 X114.981 Y94.413 E10.46161
G1 X115.867 Y94.356 E10.49114
G1 X116.934 Y94.334 E10.52663
G1 X117.154 Y94.332 E10.53395
G1 X118.342 Y94.334 E10.57346
G1 X118.953 Y94.343 E10.59379
G1 X119.855 Y94.396 E10.62384
G1 X120.72 Y94.524 E10.65292
G1 X121.739 Y94.719 E10.68743
G1 X121.942 Y94.76 E10.69432
G1 X123.111 Y95.009 E10.73407
G1 X123.753 Y95.156 E10.75598
G1 X124.623 Y95.397 E10.786
G1 X125.437 Y95.699 E10.81488
G1 X126.391 Y96.101 E10.84931
G1 X127.608 Y96.641 E10.8936
G1 X128.22 Y96.922 E10.91599
G1 X129.023 Y97.335 E10.94603
G1 X129.801 Y97.827 E10.97664
G1 X130.688 Y98.446 E11.01262
G1 X131.735 Y99.206 E11.05565
G1 X132.285 Y99.618 E11.07851
G1 X132.983 Y100.191 E11.10854
G1 X133.607 Y100.802 E11.13759
G1 X134.458 Y101.711 E11.179
G1 X135.269 Y102.615 E11.2194
G1 X135.689 Y103.096 E11.24064
G1 X136.253 Y103.802 E11.27069
G1 X136.732 Y104.523 E11.29948
G1 X137.261 Y105.397 E11.33346
G1 X137.366 Y105.575 E11.34033
G1 X137.954 Y106.594 E11.37946
G1 X138.272 Y107.162 E11.40111
G1 X138.678 Y107.969 E11.43116
G1 X139.009 Y108.804 E11.46104
G1 X139.363 Y109.825 E11.49698
G1 X139.425 Y110.009 E11.50344
G1 X139.774 Y111.084 E11.54103
G1 X139.975 Y111.734 E11.56366
G1 X140.203 Y112.607 E11.59367
G1 X140.353 Y113.496 E11.62365
G1 X140.497 Y114.672 E11.66306
G1 X140.608 Y115.716 E11.69798
G1 X140.681 Y116.516 E11.7247
G1 X140.723 Y117.418 E11.75473
G1 X140.687 Y118.291 E11.78379
G1 X140.595 Y119.384 E11.82027
G1 X140.575 Y119.599 E11.82745
G1 X140.455 Y120.726 E11.86515
G1 X140.378 Y121.369 E11.88669
G1 X140.231 Y122.26 E11.91672
G1 X140.009 Y123.124 E11.94639
G1 X139.704 Y124.127 E11.98126
G1 X139.333 Y125.277 E12.02145
G1 X139.083 Y126.017 E12.04743
G1 X138.755 Y126.859 E12.07749
G1 X138.357 Y127.662 E12.1073
G1 X137.829 Y128.62 E12.14368
G1 X137.724 Y128.806 E12.15078
G1 X137.155 Y129.788 E12.18853
G1 X136.812 Y130.36 E12.21071
G1 X136.313 Y131.113 E12.24076
G1 X135.783 Y131.782 E12.26915
G1 X135.104 Y132.568 E12.30369
G1 X134.972 Y132.718 E12.31034
G1 X134.243 Y133.528 E12.34658
G1 X133.752 Y134.06 E12.37066
G1 X133.11 Y134.696 E12.40072
G1 X132.409 Y135.277 E12.431
G1 X131.422 Y136.022 E12.47213
G1 X130.455 Y136.724 E12.51187
G1 X129.924 Y137.097 E12.53346
G1 X129.163 Y137.582 E12.56347
G1 X128.403 Y137.98 E12.59201
G1 X127.44 Y138.433 E12.6274
G1 X127.253 Y138.519 E12.63425
G1 X126.383 Y138.907 E12.66593
G1 X125.72 Y139.191 E12.68992
G1 X125.47 Y139.294 E12.69891
G1 X125.263 Y139.376 E12.70632
G1 X124.409 Y139.671 E12.73637
G1 X123.782 Y139.836 E12.75793
G1 X123.022 Y140.01 E12.78387
G1 X121.561 Y140.321 E12.83355
G1 X120.912 Y140.45 E12.85556
G1 X120.019 Y140.587 E12.88561
G1 X119.133 Y140.644 E12.91513
G1 X118.066 Y140.666 E12.95063
G1 X117.846 Y140.668 E12.95795
G1 X116.658 Y140.666 E12.99746
G1 X116.047 Y140.657 E13.01779
G1 X115.145 Y140.604 E13.04784
G1 X114.276 Y140.475 E13.07706
G1 X113.059 Y140.24 E13.11828
G1 X111.889 Y139.991 E13.15807
G1 X111.247 Y139.844 E13.17997
G1 X110.377 Y139.603 E13.21
G1 X109.565 Y139.301 E13.23882
G1 X108.42 Y138.817 E13.28016
G1 X107.392 Y138.359 E13.31759
G1 X106.78 Y138.078 E13.33999
G1 X105.977 Y137.665 E13.37002
G1 X105.199 Y137.173 E13.40064
G1 X104.312 Y136.554 E13.43662
G1 X103.368 Y135.869 E13.47541
G1 X102.72 Y135.385 E13.50231
G1 X102.021 Y134.813 E13.53235
G1 X101.393 Y134.198 E13.56158
G1 X100.542 Y133.289 E13.603
G1 X99.731 Y132.385 E13.64339
G1 X99.311 Y131.904 E13.66463
G1 X98.747 Y131.198 E13.69469
G1 X98.268 Y130.477 E13.72348
G1 X97.739 Y129.603 E13.75746
G1 X97.634 Y129.425 E13.76433
G1 X97.046 Y128.406 E13.80346
G1 X96.728 Y127.838 E13.82511
G1 X96.322 Y127.031 E13.85516
G1 X95.991 Y126.196 E13.88503
G1 X95.572 Y124.983 E13.92772
G1 X95.22 Y123.894 E13.96578
G1 X95.027 Y123.271 E13.98747
G1 X94.798 Y122.398 E14.01749
G1 X94.647 Y121.504 E14.04765
G1 X94.503 Y120.328 E14.08705
G1 X94.392 Y119.284 E14.12197
G1 X94.319 Y118.484 E14.14869
G1 X94.277 Y117.582 E14.17872
G1 X94.313 Y116.709 E14.20779
G1 X94.405 Y115.616 E14.24427
G1 X94.426 Y115.394 E14.25168
G1 X94.546 Y114.273 E14.28918
G1 X94.621 Y113.641 E14.31035
G1 X94.767 Y112.75 E14.34038
G1 X94.992 Y111.873 E14.37049
G1 X95.351 Y110.699 E14.41133
G1 X95.713 Y109.583 E14.45035
G1 X95.917 Y108.982 E14.47146
G1 X96.245 Y108.141 E14.50148
G1 X96.645 Y107.334 E14.53144
G1 X97.174 Y106.375 E14.56787
G1 X97.276 Y106.194 E14.57478
G1 X97.868 Y105.174 E14.614
G1 X98.191 Y104.636 E14.63487
G1 X98.69 Y103.883 E14.66492
G1 X99.217 Y103.218 E14.69314
G1 X99.896 Y102.432 E14.72768
