;FLAVOR:Marlin
;TIME:8069
;Filament used: 5.54591m
;Layer height: 0.2
;MINX:94
;MINY:21
;MINZ:0.2
;MAXX:141
;MAXY:214
;MAXZ:20
;Generated with Cura_SteamEngine 4.11.0
M140 S55
M105
M190 S55
M104 S205
M105
M109 S205
M82 ;absolute extrusion mode
; Ender 3 Custom Start G-code
G92 E0 ; Reset Extruder
G28 ; Home all axes
G1 Z2.0 F3000 ; Move Z Axis up little to prevent scratching of Heat Bed
G1 X0.1 Y20 Z0.3 F5000.0 ; Move to start position
G1 X0.1 Y200.0 Z0.3 F1500.0 E15 ; Draw the first line
G1 X0.4 Y200.0 Z0.3 F5000.0 ; Move to side a little
G1 X0.4 Y20 Z0.3 F1500.0 E30 ; Draw the second line
G92 E0 ; Reset Extruder
G1 Z2.0 F3000 ; Move Z Axis up little to prevent scratching of Heat Bed
G1 X5 Y20 Z0.3 F5000.0 ; Move over to prevent blob squish
G92 E0
G92 E0
G1 F2700 E-5
;LAYER_COUNT:100
;LAYER:0
M107
G0 F6000 X94.406 Y29.081 Z0.2
;TYPE:SKIRT
G1 F2700 E0
G1 F1200 X94.694 Y28.189 E0.03118
G1 X95.057 Y27.324 E0.06238
G1 X95.492 Y26.493 E0.09357
G1 X95.996 Y25.703 E0.12474
G1 X96.566 Y24.958 E0.15594
G1 X97.198 Y24.264 E0.18716
G1 X97.886 Y23.627 E0.21835
G1 X98.626 Y23.051 E0.24953
G1 X99.412 Y22.539 E0.28073
G1 X100.239 Y22.097 E0.31192
G1 X101.101 Y21.727 E0.34312
G1 X101.991 Y21.431 E0.37432
G1 X102.903 Y21.213 E0.40551
G1 X103.83 Y21.072 E0.43669
G1 X104.701 Y21.013 E0.46573
G1 X105.022 Y21.004 E0.47641
G1 X105.33 Y21 E0.48665
G1 X129.293 Y21 E1.28367
G1 X130.149 Y21.011 E1.31214
G1 X131.085 Y21.065 E1.34332
G1 X132.013 Y21.197 E1.3745
G1 X132.927 Y21.409 E1.40571
G1 X133.819 Y21.698 E1.43689
G1 X134.684 Y22.061 E1.46809
G1 X135.514 Y22.497 E1.49928
G1 X136.305 Y23.002 E1.53049
G1 X137.049 Y23.573 E1.56168
G1 X137.742 Y24.205 E1.59288
G1 X138.379 Y24.893 E1.62406
G1 X138.954 Y25.634 E1.65526
G1 X139.465 Y26.42 E1.68644
G1 X139.907 Y27.248 E1.71766
G1 X140.276 Y28.11 E1.74884
G1 X140.571 Y29 E1.78003
G1 X140.789 Y29.912 E1.81122
G1 X140.929 Y30.84 E1.84243
G1 X140.987 Y31.701 E1.87113
G1 X140.996 Y32.021 E1.88178
G1 X141 Y32.33 E1.89206
G1 X140.999 Y202.4 E7.54861
G1 X140.99 Y203.127 E7.57279
G1 X140.939 Y204.064 E7.604
G1 X140.807 Y204.992 E7.63518
G1 X140.598 Y205.906 E7.66636
G1 X140.311 Y206.799 E7.69756
G1 X139.949 Y207.665 E7.72878
G1 X139.515 Y208.496 E7.75996
G1 X139.011 Y209.287 E7.79116
G1 X138.442 Y210.032 E7.82234
G1 X137.811 Y210.727 E7.85356
G1 X137.124 Y211.365 E7.88474
G1 X136.385 Y211.942 E7.91593
G1 X135.599 Y212.454 E7.94712
G1 X134.773 Y212.897 E7.9783
G1 X133.911 Y213.269 E8.00953
G1 X133.022 Y213.565 E8.04069
G1 X132.11 Y213.785 E8.07189
G1 X131.183 Y213.926 E8.10308
G1 X130.299 Y213.987 E8.13255
G1 X129.978 Y213.996 E8.14323
G1 X129.67 Y214 E8.15348
G1 X105.565 Y213.999 E8.95521
G1 X104.867 Y213.99 E8.97843
G1 X103.931 Y213.938 E9.00961
G1 X103.002 Y213.806 E9.04082
G1 X102.088 Y213.596 E9.07201
G1 X101.195 Y213.309 E9.10321
G1 X100.33 Y212.946 E9.13441
G1 X99.499 Y212.512 E9.16559
G1 X98.708 Y212.008 E9.19679
G1 X97.963 Y211.438 E9.22799
G1 X97.269 Y210.807 E9.25918
G1 X96.632 Y210.12 E9.29034
G1 X96.055 Y209.38 E9.32155
G1 X95.543 Y208.594 E9.35275
G1 X95.1 Y207.767 E9.38396
G1 X94.729 Y206.906 E9.41514
G1 X94.433 Y206.016 E9.44634
G1 X94.214 Y205.104 E9.47753
G1 X94.073 Y204.177 E9.50872
G1 X94.013 Y203.288 E9.53835
G1 X94.004 Y202.955 E9.54943
G1 X94 Y202.658 E9.55931
G1 X94.001 Y32.525 E15.21796
G1 X94.01 Y31.86 E15.24008
G1 X94.063 Y30.924 E15.27126
G1 X94.195 Y29.995 E15.30247
G1 X94.406 Y29.081 E15.33367
G0 F6000 X94.805 Y29.139
G1 F1200 X95.092 Y28.264 E15.3643
G1 X95.455 Y27.418 E15.39492
G1 X95.889 Y26.606 E15.42554
G1 X96.392 Y25.835 E15.45616
G1 X96.961 Y25.111 E15.48678
G1 X97.589 Y24.439 E15.51737
G1 X98.274 Y23.823 E15.54802
G1 X99.01 Y23.27 E15.57863
G1 X99.791 Y22.782 E15.60926
G1 X100.611 Y22.364 E15.63988
G1 X101.465 Y22.019 E15.67051
G1 X102.345 Y21.749 E15.70113
G1 X103.245 Y21.557 E15.73173
G1 X104.159 Y21.443 E15.76237
G1 X104.712 Y21.413 E15.78079
G1 X105.033 Y21.404 E15.79147
G1 X105.33 Y21.4 E15.80135
G1 X129.293 Y21.4 E16.59836
G1 X130.143 Y21.411 E16.62664
G1 X131.062 Y21.464 E16.65725
G1 X131.973 Y21.597 E16.68787
G1 X132.869 Y21.808 E16.71849
G1 X133.743 Y22.096 E16.7491
G1 X134.59 Y22.459 E16.77975
G1 X135.401 Y22.894 E16.81036
G1 X136.171 Y23.398 E16.84096
G1 X136.895 Y23.967 E16.87159
G1 X137.567 Y24.597 E16.90223
G1 X138.182 Y25.282 E16.93285
G1 X138.735 Y26.018 E16.96347
G1 X139.222 Y26.799 E16.99408
G1 X139.639 Y27.62 E17.02471
G1 X139.984 Y28.474 E17.05534
G1 X140.253 Y29.354 E17.08595
G1 X140.445 Y30.255 E17.11659
G1 X140.558 Y31.168 E17.14718
G1 X140.587 Y31.712 E17.1653
G1 X140.596 Y32.032 E17.17595
G1 X140.6 Y32.33 E17.18586
G1 X140.599 Y202.395 E22.84225
G1 X140.59 Y203.122 E22.86643
G1 X140.539 Y204.041 E22.89704
G1 X140.408 Y204.953 E22.92769
G1 X140.198 Y205.849 E22.9583
G1 X139.912 Y206.724 E22.98891
G1 X139.551 Y207.571 E23.01954
G1 X139.117 Y208.383 E23.05016
G1 X138.615 Y209.155 E23.08079
G1 X138.047 Y209.88 E23.11142
G1 X137.419 Y210.553 E23.14204
G1 X136.735 Y211.169 E23.17265
G1 X136 Y211.723 E23.20327
G1 X135.22 Y212.212 E23.23389
G1 X134.4 Y212.631 E23.26451
G1 X133.547 Y212.977 E23.29513
G1 X132.667 Y213.248 E23.32575
G1 X131.767 Y213.441 E23.35637
G1 X130.853 Y213.556 E23.38701
G1 X130.288 Y213.587 E23.40583
G1 X129.967 Y213.596 E23.41651
G1 X129.67 Y213.6 E23.42639
G1 X105.57 Y213.599 E24.22796
G1 X104.872 Y213.59 E24.25118
G1 X103.953 Y213.538 E24.28179
G1 X103.042 Y213.407 E24.3124
G1 X102.146 Y213.197 E24.34301
G1 X101.271 Y212.91 E24.37364
G1 X100.424 Y212.548 E24.40427
G1 X99.612 Y212.114 E24.4349
G1 X98.841 Y211.612 E24.4655
G1 X98.116 Y211.044 E24.49613
G1 X97.443 Y210.415 E24.52677
G1 X96.828 Y209.731 E24.55736
G1 X96.274 Y208.996 E24.58798
G1 X95.786 Y208.215 E24.61861
G1 X95.367 Y207.395 E24.64923
G1 X95.021 Y206.542 E24.67985
G1 X94.751 Y205.662 E24.71046
G1 X94.558 Y204.761 E24.74111
G1 X94.444 Y203.848 E24.77171
G1 X94.413 Y203.277 E24.79073
G1 X94.404 Y202.944 E24.80181
G1 X94.4 Y202.658 E24.81133
G1 X94.401 Y32.531 E30.46977
G1 X94.41 Y31.866 E30.49189
G1 X94.462 Y30.946 E30.52254
G1 X94.594 Y30.035 E30.55316
G1 X94.805 Y29.139 E30.58377
G0 F6000 X95.204 Y29.198
G1 F1200 X95.491 Y28.341 E30.61383
G1 X95.853 Y27.514 E30.64386
G1 X96.286 Y26.722 E30.67388
G1 X96.788 Y25.971 E30.70393
G1 X97.355 Y25.267 E30.73399
G1 X97.981 Y24.617 E30.76401
G1 X98.662 Y24.024 E30.79404
G1 X99.394 Y23.494 E30.8241
G1 X100.169 Y23.031 E30.85413
G1 X100.982 Y22.638 E30.88416
G1 X101.827 Y22.318 E30.91421
G1 X102.696 Y22.075 E30.94422
G1 X103.584 Y21.909 E30.97427
G1 X104.723 Y21.813 E31.01229
G1 X105.044 Y21.804 E31.02297
G1 X105.33 Y21.8 E31.03248
G1 X129.293 Y21.8 E31.82949
G1 X130.137 Y21.811 E31.85757
G1 X131.039 Y21.864 E31.88762
G1 X131.932 Y21.996 E31.91764
G1 X132.81 Y22.207 E31.94768
G1 X133.666 Y22.495 E31.97772
G1 X134.493 Y22.857 E32.00774
G1 X135.285 Y23.292 E32.0378
G1 X136.036 Y23.794 E32.06784
G1 X136.739 Y24.361 E32.09788
G1 X137.389 Y24.988 E32.12792
G1 X137.981 Y25.67 E32.15796
G1 X138.511 Y26.401 E32.18799
G1 X138.973 Y27.177 E32.21803
G1 X139.366 Y27.99 E32.24806
G1 X139.684 Y28.835 E32.27809
G1 X139.927 Y29.705 E32.30813
G1 X140.092 Y30.593 E32.33817
G1 X140.187 Y31.723 E32.37589
G1 X140.196 Y32.043 E32.38654
G1 X140.2 Y32.33 E32.39608
G1 X140.199 Y202.39 E38.0523
G1 X140.19 Y203.117 E38.07648
G1 X140.139 Y204.019 E38.10653
G1 X140.008 Y204.913 E38.13658
G1 X139.799 Y205.791 E38.1666
G1 X139.513 Y206.648 E38.19665
G1 X139.152 Y207.476 E38.2267
G1 X138.72 Y208.268 E38.2567
G1 X138.219 Y209.02 E38.28676
G1 X137.653 Y209.724 E38.3168
G1 X137.028 Y210.375 E38.34682
G1 X136.347 Y210.969 E38.37687
G1 X135.616 Y211.5 E38.40692
G1 X134.842 Y211.964 E38.43694
G1 X134.029 Y212.358 E38.46699
G1 X133.185 Y212.678 E38.49701
G1 X132.315 Y212.923 E38.52707
G1 X131.428 Y213.089 E38.55708
G1 X130.277 Y213.187 E38.5955
G1 X129.956 Y213.196 E38.60618
G1 X129.67 Y213.2 E38.6157
G1 X105.575 Y213.199 E39.4171
G1 X104.877 Y213.19 E39.44032
G1 X103.976 Y213.139 E39.47033
G1 X103.082 Y213.007 E39.50039
G1 X102.204 Y212.798 E39.53041
G1 X101.347 Y212.511 E39.56047
G1 X100.52 Y212.15 E39.59048
G1 X99.727 Y211.717 E39.62053
G1 X98.976 Y211.216 E39.65056
G1 X98.272 Y210.65 E39.6806
G1 X97.621 Y210.024 E39.71064
G1 X97.028 Y209.343 E39.74068
G1 X96.498 Y208.612 E39.77071
G1 X96.034 Y207.837 E39.80075
G1 X95.64 Y207.024 E39.8308
G1 X95.32 Y206.18 E39.86082
G1 X95.076 Y205.31 E39.89087
G1 X94.91 Y204.422 E39.92092
G1 X94.813 Y203.267 E39.95947
G1 X94.804 Y202.934 E39.97055
G1 X94.8 Y202.658 E39.97973
G1 X94.801 Y32.536 E45.63801
G1 X94.81 Y31.871 E45.66013
G1 X94.862 Y30.969 E45.69018
G1 X94.994 Y30.076 E45.72021
G1 X95.204 Y29.198 E45.75023
G1 F2700 E40.75023
;MESH:Super Jaiks-Sango.stl
G0 F6000 X104.335 Y32.81
G0 X105.81 Y32.81
G0 X129.218 Y32.782
G0 X129.4 Y202.4
;TYPE:WALL-INNER
G1 F2700 E45.75023
G1 F1200 X105.6 Y202.4 E46.54182
G1 X105.6 Y32.6 E52.18939
G1 X129.4 Y32.6 E52.98099
G1 X129.4 Y202.4 E58.62856
G0 F6000 X129.8 Y202.8
;TYPE:WALL-OUTER
G1 F1200 X105.2 Y202.8 E59.44676
G1 X105.2 Y32.2 E65.12093
G1 X129.8 Y32.2 E65.93913
G1 X129.8 Y202.8 E71.61331
G0 F6000 X129.53 Y202.53
G0 X129.29 Y202.01
G0 X129.01 Y202.01
;TYPE:SKIN
G1 F1200 X105.99 Y202.01 E72.37896
G1 X105.99 Y32.99 E78.00059
G1 X129.01 Y32.99 E78.76624
G1 X129.01 Y202.01 E84.38787
G0 F6000 X129.29 Y202.01
G0 X106.248 Y202.29
G0 X106.248 Y201.849
G1 F1200 X106.148 Y201.749 E84.39257
G0 F6000 X106.148 Y201.183
G1 F1200 X106.814 Y201.849 E84.4239
G0 F6000 X107.379 Y201.849
G1 F1200 X106.148 Y200.618 E84.4818
G0 F6000 X106.148 Y200.052
G1 F1200 X107.945 Y201.849 E84.56632
G0 F6000 X108.511 Y201.849
G1 F1200 X106.148 Y199.486 E84.67747
G0 F6000 X106.148 Y198.921
G1 F1200 X109.076 Y201.849 E84.8152
G0 F6000 X109.642 Y201.849
G1 F1200 X106.148 Y198.355 E84.97954
G0 F6000 X106.148 Y197.789
G1 F1200 X110.208 Y201.849 E85.17051
G0 F6000 X110.773 Y201.849
G1 F1200 X106.148 Y197.224 E85.38806
G0 F6000 X106.148 Y196.658
G1 F1200 X111.339 Y201.849 E85.63223
G0 F6000 X111.905 Y201.849
G1 F1200 X106.148 Y196.092 E85.90302
G0 F6000 X106.148 Y195.527
G1 F1200 X112.47 Y201.849 E86.20039
G0 F6000 X113.036 Y201.849
G1 F1200 X106.148 Y194.961 E86.52438
G0 F6000 X106.148 Y194.395
G1 F1200 X113.602 Y201.849 E86.87499
G0 F6000 X114.168 Y201.849
G1 F1200 X106.148 Y193.829 E87.25223
G0 F6000 X106.148 Y193.264
G1 F1200 X114.733 Y201.849 E87.65604
G0 F6000 X115.299 Y201.849
G1 F1200 X106.148 Y192.698 E88.08647
G0 F6000 X106.148 Y192.132
G1 F1200 X115.865 Y201.849 E88.54353
G0 F6000 X116.43 Y201.849
G1 F1200 X106.148 Y191.567 E89.02717
G0 F6000 X106.148 Y191.001
G1 F1200 X116.996 Y201.849 E89.53742
G0 F6000 X117.562 Y201.849
G1 F1200 X106.148 Y190.435 E90.0743
G0 F6000 X106.148 Y189.87
G1 F1200 X118.127 Y201.849 E90.63776
G0 F6000 X118.693 Y201.849
G1 F1200 X106.148 Y189.304 E91.22784
G0 F6000 X106.148 Y188.738
G1 F1200 X119.259 Y201.849 E91.84454
G0 F6000 X119.824 Y201.849
G1 F1200 X106.148 Y188.173 E92.48781
G0 F6000 X106.148 Y187.607
G1 F1200 X120.39 Y201.849 E93.15771
G0 F6000 X120.956 Y201.849
G1 F1200 X106.148 Y187.041 E93.85424
G0 F6000 X106.148 Y186.476
G1 F1200 X121.521 Y201.849 E94.57734
G0 F6000 X122.087 Y201.849
G1 F1200 X106.148 Y185.91 E95.32706
G0 F6000 X106.148 Y185.344
G1 F1200 X122.653 Y201.849 E96.1034
G0 F6000 X123.219 Y201.849
G1 F1200 X106.148 Y184.779 E96.90635
G0 F6000 X106.148 Y184.213
G1 F1200 X123.784 Y201.849 E97.73589
G0 F6000 X124.35 Y201.849
G1 F1200 X106.148 Y183.647 E98.59206
G0 F6000 X106.148 Y183.081
G1 F1200 X124.916 Y201.849 E99.47484
G0 F6000 X125.481 Y201.849
G1 F1200 X106.148 Y182.516 E100.38421
G0 F6000 X106.148 Y181.95
G1 F1200 X126.047 Y201.849 E101.3202
G0 F6000 X126.613 Y201.849
G1 F1200 X106.148 Y181.384 E102.28281
G0 F6000 X106.148 Y180.819
G1 F1200 X127.178 Y201.849 E103.272
G0 F6000 X127.744 Y201.849
G1 F1200 X106.148 Y180.253 E104.2878
G0 F6000 X106.148 Y179.687
G1 F1200 X128.31 Y201.849 E105.33024
G0 F6000 X128.85 Y201.823
G1 F1200 X106.148 Y179.122 E106.39805
G0 F6000 X106.148 Y178.556
G1 F1200 X128.85 Y201.258 E107.46588
G0 F6000 X128.85 Y200.692
G1 F1200 X106.148 Y177.99 E108.53371
G0 F6000 X106.148 Y177.425
G1 F1200 X128.85 Y200.126 E109.60152
G0 F6000 X128.85 Y199.561
G1 F1200 X106.148 Y176.859 E110.66935
G0 F6000 X106.148 Y176.293
G1 F1200 X128.85 Y198.995 E111.73719
G0 F6000 X128.85 Y198.429
G1 F1200 X106.148 Y175.728 E112.80499
G0 F6000 X106.148 Y175.162
G1 F1200 X128.85 Y197.864 E113.87283
G0 F6000 X128.85 Y197.298
G1 F1200 X106.148 Y174.596 E114.94066
G0 F6000 X106.148 Y174.03
G1 F1200 X128.85 Y196.732 E116.00849
G0 F6000 X128.85 Y196.166
G1 F1200 X106.148 Y173.465 E117.0763
G0 F6000 X106.148 Y172.899
G1 F1200 X128.85 Y195.601 E118.14413
G0 F6000 X128.85 Y195.035
G1 F1200 X106.148 Y172.333 E119.21197
G0 F6000 X106.148 Y171.768
G1 F1200 X128.85 Y194.469 E120.27977
G0 F6000 X128.85 Y193.904
G1 F1200 X106.148 Y171.202 E121.34761
G0 F6000 X106.148 Y170.636
G1 F1200 X128.85 Y193.338 E122.41544
G0 F6000 X128.85 Y192.772
G1 F1200 X106.148 Y170.071 E123.48325
G0 F6000 X106.148 Y169.505
G1 F1200 X128.85 Y192.207 E124.55108
G0 F6000 X128.85 Y191.641
G1 F1200 X106.148 Y168.939 E125.61891
G0 F6000 X106.148 Y168.374
G1 F1200 X128.85 Y191.075 E126.68672
G0 F6000 X128.85 Y190.51
G1 F1200 X106.148 Y167.808 E127.75455
G0 F6000 X106.148 Y167.242
G1 F1200 X128.85 Y189.944 E128.82239
G0 F6000 X128.85 Y189.378
G1 F1200 X106.148 Y166.677 E129.8902
G0 F6000 X106.148 Y166.111
G1 F1200 X128.85 Y188.813 E130.95803
G0 F6000 X128.85 Y188.247
G1 F1200 X106.148 Y165.545 E132.02586
G0 F6000 X106.148 Y164.98
G1 F1200 X128.85 Y187.681 E133.09367
G0 F6000 X128.85 Y187.116
G1 F1200 X106.148 Y164.414 E134.1615
G0 F6000 X106.148 Y163.848
G1 F1200 X128.85 Y186.55 E135.22934
G0 F6000 X128.85 Y185.984
G1 F1200 X106.148 Y163.282 E136.29717
G0 F6000 X106.148 Y162.717
G1 F1200 X128.85 Y185.418 E137.36498
G0 F6000 X128.85 Y184.853
G1 F1200 X106.148 Y162.151 E138.43281
G0 F6000 X106.148 Y161.585
G1 F1200 X128.85 Y184.287 E139.50064
G0 F6000 X128.85 Y183.721
G1 F1200 X106.148 Y161.02 E140.56845
G0 F6000 X106.148 Y160.454
G1 F1200 X128.85 Y183.156 E141.63628
G0 F6000 X128.85 Y182.59
G1 F1200 X106.148 Y159.888 E142.70412
G0 F6000 X106.148 Y159.323
G1 F1200 X128.85 Y182.024 E143.77192
G0 F6000 X128.85 Y181.459
G1 F1200 X106.148 Y158.757 E144.83976
G0 F6000 X106.148 Y158.191
G1 F1200 X128.85 Y180.893 E145.90759
G0 F6000 X128.85 Y180.327
G1 F1200 X106.148 Y157.626 E146.9754
G0 F6000 X106.148 Y157.06
G1 F1200 X128.85 Y179.762 E148.04323
G0 F6000 X128.85 Y179.196
G1 F1200 X106.148 Y156.494 E149.11106
G0 F6000 X106.148 Y155.929
G1 F1200 X128.85 Y178.63 E150.17887
G0 F6000 X128.85 Y178.065
G1 F1200 X106.148 Y155.363 E151.2467
G0 F6000 X106.148 Y154.797
G1 F1200 X128.85 Y177.499 E152.31454
G0 F6000 X128.85 Y176.933
G1 F1200 X106.148 Y154.232 E153.38235
G0 F6000 X106.148 Y153.666
G1 F1200 X128.85 Y176.367 E154.45016
G0 F6000 X128.85 Y175.802
G1 F1200 X106.148 Y153.1 E155.51799
G0 F6000 X106.148 Y152.534
G1 F1200 X128.85 Y175.236 E156.58582
G0 F6000 X128.85 Y174.67
G1 F1200 X106.148 Y151.969 E157.65363
G0 F6000 X106.148 Y151.403
G1 F1200 X128.85 Y174.105 E158.72146
G0 F6000 X128.85 Y173.539
G1 F1200 X106.148 Y150.837 E159.78929
G0 F6000 X106.148 Y150.272
G1 F1200 X128.85 Y172.973 E160.8571
G0 F6000 X128.85 Y172.408
G1 F1200 X106.148 Y149.706 E161.92494
G0 F6000 X106.148 Y149.14
G1 F1200 X128.85 Y171.842 E162.99277
G0 F6000 X128.85 Y171.276
G1 F1200 X106.148 Y148.575 E164.06058
G0 F6000 X106.148 Y148.009
G1 F1200 X128.85 Y170.711 E165.12841
G0 F6000 X128.85 Y170.145
G1 F1200 X106.148 Y147.443 E166.19624
G0 F6000 X106.148 Y146.878
G1 F1200 X128.85 Y169.579 E167.26405
G0 F6000 X128.85 Y169.014
G1 F1200 X106.148 Y146.312 E168.33188
G0 F6000 X106.148 Y145.746
G1 F1200 X128.85 Y168.448 E169.39972
G0 F6000 X128.85 Y167.882
G1 F1200 X106.148 Y145.181 E170.46752
G0 F6000 X106.148 Y144.615
G1 F1200 X128.85 Y167.317 E171.53536
G0 F6000 X128.85 Y166.751
G1 F1200 X106.148 Y144.049 E172.60319
G0 F6000 X106.148 Y143.483
G1 F1200 X128.85 Y166.185 E173.67102
G0 F6000 X128.85 Y165.619
G1 F1200 X106.148 Y142.918 E174.73883
G0 F6000 X106.148 Y142.352
G1 F1200 X128.85 Y165.054 E175.80666
