;FLAVOR:Marlin
;TIME:2119
;Filament used: 1.12222m
;Layer height: 0.2
;MINX:83.3
;MINY:90.15
;MINZ:0.2
;MAXX:151.7
;MAXY:144.85
;MAXZ:15.6
;TARGET_MACHINE.NAME:Creality Ender-3
;Generated with Cura_SteamEngine 5.6.0
M140 S60
M105
M190 S60
M104 S205
M105
M109 S205
M82 ;absolute extrusion mode
; Ender 3 Custom Start G-code
G92 E0 ; Reset Extruder
G28 ; Home all axes
G1 Z2.0 F3000 ; Move Z Axis up little to prevent scratching of Heat Bed
G1 X0.1 Y20 Z0.3 F5000.0 ; Move to start position
G1 X0.1 Y200.0 Z0.3 F1500.0 E15 ; Draw the first line
G1 X0.4 Y200.0 Z0.3 F5000.0 ; Move to side a little
G1 X0.4 Y20 Z0.3 F1500.0 E30 ; Draw the second line
G92 E0 ; Reset Extruder
G1 Z2.0 F3000 ; Move Z Axis up little to prevent scratching of Heat Bed
G1 X5 Y20 Z0.3 F5000.0 ; Move over to prevent blob squish
G92 E0
G92 E0
G1 F2700 E-5
;LAYER_COUNT:78
;LAYER:0
M107
G0 F6000 X94.754 Y93.164 Z0.2
;TYPE:SKIRT
G1 F2700 E0
G1 F1200 X95.49 Y92.528 E0.03235
G1 X96.221 Y91.997 E0.0624
G1 X97.118 Y91.462 E0.09714
G1 X97.996 Y91.041 E0.12953
G1 X98.909 Y90.699 E0.16195
G1 X99.846 Y90.44 E0.19429
G1 X100.813 Y90.262 E0.22699
G1 X101.923 Y90.167 E0.26404
G1 X102.611 Y90.15 E0.28693
G1 X109.603 Y90.15 E0.51949
G1 X110.468 Y90.161 E0.54826
G1 X110.917 Y90.178 E0.56321
G1 X113.667 Y90.333 E0.65482
G1 X116.201 Y90.405 E0.73913
G1 X118.69 Y90.405 E0.82192
G1 X121.203 Y90.334 E0.90553
G1 X122.606 Y90.246 E0.95229
G1 X123.071 Y90.236 E0.96776
G1 X124.091 Y90.176 E1.00174
G1 X124.743 Y90.154 E1.02344
G1 X132.151 Y90.151 E1.26983
G1 X132.868 Y90.162 E1.29368
G1 X133.856 Y90.222 E1.3266
G1 X134.82 Y90.368 E1.35903
G1 X135.767 Y90.599 E1.39145
G1 X136.623 Y90.887 E1.42149
G1 X137.579 Y91.306 E1.45621
G1 X138.432 Y91.777 E1.48862
G1 X139.239 Y92.322 E1.521
G1 X139.996 Y92.936 E1.55342
G1 X140.694 Y93.614 E1.58579
G1 X141.33 Y94.351 E1.61817
G1 X141.899 Y95.141 E1.65055
G1 X142.362 Y95.917 E1.6806
G1 X142.954 Y97.2 E1.7276
G1 X143.568 Y98.789 E1.78426
G1 X144.556 Y101.223 E1.87163
G1 X145.57 Y103.526 E1.95532
G1 X146.638 Y105.78 E2.03828
G1 X147.767 Y107.998 E2.12106
G1 X148.997 Y110.253 E2.20649
G1 X150.208 Y112.338 E2.28669
G1 X150.665 Y113.219 E2.3197
G1 X151.036 Y114.12 E2.35211
G1 X151.325 Y115.049 E2.38447
G1 X151.531 Y116 E2.41683
G1 X151.646 Y116.896 E2.44687
G1 X151.681 Y117.457 E2.46557
G1 X151.7 Y118.18 E2.48963
G1 X151.699 Y133.25 E2.99086
G1 X151.688 Y134.013 E3.01624
G1 X151.631 Y134.986 E3.04865
G1 X151.486 Y135.949 E3.08104
G1 X151.257 Y136.895 E3.11342
G1 X150.946 Y137.819 E3.14584
G1 X150.554 Y138.71 E3.17822
G1 X150.086 Y139.562 E3.21055
G1 X149.564 Y140.343 E3.24179
G1 X148.931 Y141.128 E3.27533
G1 X148.306 Y141.779 E3.30535
G1 X147.517 Y142.467 E3.34017
G1 X146.757 Y143.017 E3.37137
G1 X145.89 Y143.534 E3.40495
G1 X145.012 Y143.956 E3.43735
G1 X144.101 Y144.298 E3.46971
G1 X143.162 Y144.559 E3.50213
G1 X142.196 Y144.737 E3.5348
G1 X141.045 Y144.835 E3.57322
G1 X140.37 Y144.85 E3.59567
G1 X94.864 Y144.849 E5.10921
G1 X94.131 Y144.838 E5.13359
G1 X93.159 Y144.781 E5.16598
G1 X92.196 Y144.635 E5.19837
G1 X91.25 Y144.406 E5.23074
G1 X90.326 Y144.094 E5.26318
G1 X89.436 Y143.702 E5.29553
G1 X88.613 Y143.251 E5.32674
G1 X87.774 Y142.69 E5.36031
G1 X87.07 Y142.124 E5.39035
G1 X86.317 Y141.399 E5.42512
G1 X85.68 Y140.663 E5.45749
G1 X85.15 Y139.932 E5.48753
G1 X84.614 Y139.035 E5.52228
G1 X84.192 Y138.157 E5.55468
G1 X83.85 Y137.245 E5.58708
G1 X83.59 Y136.307 E5.61945
G1 X83.412 Y135.338 E5.65222
G1 X83.314 Y134.159 E5.69157
G1 X83.3 Y133.508 E5.71323
G1 X83.301 Y118.4 E6.21572
G1 X83.312 Y117.678 E6.23974
G1 X83.372 Y116.69 E6.27266
G1 X83.518 Y115.726 E6.30509
G1 X83.749 Y114.779 E6.33751
G1 X84.049 Y113.891 E6.36868
G1 X84.437 Y113.003 E6.40091
G1 X84.8 Y112.325 E6.42649
G1 X85.654 Y110.856 E6.48301
G1 X86.878 Y108.658 E6.56668
G1 X88.067 Y106.371 E6.65242
G1 X89.151 Y104.135 E6.73506
G1 X90.186 Y101.835 E6.81895
G1 X91.163 Y99.49 E6.90345
G1 X92.057 Y97.172 E6.98608
G1 X92.449 Y96.282 E7.01842
G1 X92.919 Y95.428 E7.05084
G1 X93.462 Y94.62 E7.08322
G1 X94.028 Y93.917 E7.11324
G1 X94.754 Y93.164 E7.14803
G0 F6000 X95.016 Y93.466
G1 F1200 X95.725 Y92.852 E7.17923
G1 X96.456 Y92.321 E7.20928
G1 X97.292 Y91.822 E7.24166
G1 X98.137 Y91.415 E7.27285
G1 X99.016 Y91.084 E7.30409
G1 X99.919 Y90.833 E7.33527
G1 X100.847 Y90.661 E7.36666
G1 X101.957 Y90.566 E7.40371
G1 X102.621 Y90.55 E7.4258
G1 X109.598 Y90.55 E7.65786
G1 X110.453 Y90.561 E7.6863
G1 X110.894 Y90.577 E7.70098
G1 X113.656 Y90.733 E7.79299
G1 X116.19 Y90.805 E7.8773
G1 X118.701 Y90.805 E7.96082
G1 X121.214 Y90.734 E8.04443
G1 X122.631 Y90.645 E8.09166
G1 X123.079 Y90.636 E8.10656
G1 X124.105 Y90.576 E8.14074
G1 X124.743 Y90.554 E8.16198
G1 X132.145 Y90.551 E8.40817
G1 X132.844 Y90.561 E8.43142
G1 X133.797 Y90.618 E8.46317
G1 X134.726 Y90.757 E8.49441
G1 X135.639 Y90.978 E8.52566
G1 X136.495 Y91.266 E8.5557
G1 X137.386 Y91.656 E8.58805
G1 X138.209 Y92.109 E8.61929
G1 X138.988 Y92.633 E8.65052
G1 X139.718 Y93.223 E8.68174
G1 X140.392 Y93.876 E8.71295
G1 X141.006 Y94.585 E8.74414
G1 X141.555 Y95.346 E8.77535
G1 X142.018 Y96.122 E8.80541
G1 X142.581 Y97.344 E8.85016
G1 X143.197 Y98.939 E8.90703
G1 X144.185 Y101.373 E8.9944
G1 X145.204 Y103.687 E9.07849
G1 X146.282 Y105.962 E9.16223
G1 X147.416 Y108.189 E9.24535
G1 X148.651 Y110.454 E9.33115
G1 X149.853 Y112.523 E9.41074
G1 X150.295 Y113.372 E9.44257
G1 X150.654 Y114.239 E9.47378
G1 X150.934 Y115.134 E9.50497
G1 X151.134 Y116.051 E9.53619
G1 X151.249 Y116.947 E9.56624
G1 X151.281 Y117.468 E9.5836
G1 X151.3 Y118.18 E9.60729
G1 X151.299 Y133.245 E10.10835
G1 X151.289 Y133.99 E10.13313
G1 X151.235 Y134.927 E10.16435
G1 X151.097 Y135.856 E10.19559
G1 X150.878 Y136.768 E10.22678
G1 X150.58 Y137.658 E10.258
G1 X150.203 Y138.518 E10.28923
G1 X149.753 Y139.34 E10.3204
G1 X149.231 Y140.121 E10.35164
G1 X148.642 Y140.851 E10.38284
G1 X148.017 Y141.502 E10.41286
G1 X147.282 Y142.143 E10.44529
G1 X146.522 Y142.693 E10.4765
G1 X145.716 Y143.174 E10.50771
G1 X144.871 Y143.582 E10.53892
G1 X143.993 Y143.913 E10.57013
G1 X143.089 Y144.166 E10.60135
G1 X142.162 Y144.338 E10.63271
G1 X141.011 Y144.436 E10.67113
G1 X140.37 Y144.45 E10.69246
G1 X94.87 Y144.449 E12.20579
G1 X94.154 Y144.439 E12.22961
G1 X93.218 Y144.385 E12.26079
G1 X92.289 Y144.246 E12.29204
G1 X91.377 Y144.027 E12.32323
G1 X90.487 Y143.728 E12.35446
G1 X89.628 Y143.351 E12.38566
G1 X88.805 Y142.9 E12.41687
G1 X88.025 Y142.378 E12.44809
G1 X87.321 Y141.812 E12.47814
G1 X86.619 Y141.137 E12.51053
G1 X86.004 Y140.428 E12.54174
G1 X85.474 Y139.697 E12.57177
G1 X84.974 Y138.861 E12.60417
G1 X84.566 Y138.016 E12.63538
G1 X84.235 Y137.138 E12.66659
G1 X83.983 Y136.234 E12.69781
G1 X83.811 Y135.305 E12.72923
G1 X83.713 Y134.126 E12.76858
G1 X83.7 Y133.508 E12.78914
G1 X83.701 Y118.406 E13.29143
G1 X83.711 Y117.702 E13.31485
G1 X83.768 Y116.749 E13.3466
G1 X83.907 Y115.82 E13.37785
G1 X84.128 Y114.907 E13.40909
G1 X84.416 Y114.051 E13.43913
G1 X84.804 Y113.163 E13.47136
G1 X85.146 Y112.526 E13.49541
G1 X86 Y111.057 E13.55192
G1 X87.233 Y108.843 E13.63621
G1 X88.422 Y106.556 E13.72194
G1 X89.511 Y104.31 E13.80496
G1 X90.551 Y101.999 E13.88925
G1 X91.532 Y99.644 E13.9741
G1 X92.423 Y97.333 E14.05648
G1 X92.8 Y96.474 E14.08768
G1 X93.251 Y95.651 E14.1189
G1 X93.774 Y94.871 E14.15013
G1 X94.34 Y94.168 E14.18015
G1 X95.016 Y93.466 E14.21256
G0 F6000 X95.278 Y93.768
G1 F1200 X95.96 Y93.176 E14.2426
G1 X96.691 Y92.645 E14.27265
G1 X97.466 Y92.182 E14.30268
G1 X98.279 Y91.789 E14.33271
G1 X99.124 Y91.469 E14.36276
G1 X99.993 Y91.226 E14.39278
G1 X100.881 Y91.06 E14.42282
G1 X101.991 Y90.965 E14.45988
G1 X102.63 Y90.95 E14.48113
G1 X109.593 Y90.95 E14.71273
G1 X110.439 Y90.961 E14.74087
G1 X110.871 Y90.976 E14.75524
G1 X113.645 Y91.133 E14.84765
G1 X116.179 Y91.205 E14.93197
G1 X118.712 Y91.205 E15.01622
G1 X121.225 Y91.134 E15.09983
G1 X122.656 Y91.044 E15.14752
G1 X123.086 Y91.036 E15.16183
G1 X124.119 Y90.976 E15.19624
G1 X124.743 Y90.954 E15.21701
G1 X132.139 Y90.951 E15.463
G1 X132.838 Y90.961 E15.48625
G1 X133.739 Y91.014 E15.51627
G1 X134.633 Y91.146 E15.54633
G1 X135.511 Y91.357 E15.57636
G1 X136.367 Y91.645 E15.6064
G1 X137.194 Y92.007 E15.63643
G1 X137.986 Y92.441 E15.66647
G1 X138.737 Y92.944 E15.69653
G1 X139.44 Y93.511 E15.72657
G1 X140.09 Y94.138 E15.75661
G1 X140.682 Y94.82 E15.78664
G1 X141.211 Y95.551 E15.81665
G1 X141.674 Y96.327 E15.84671
G1 X142.208 Y97.488 E15.88921
G1 X142.826 Y99.09 E15.94632
G1 X143.815 Y101.524 E16.03371
G1 X144.838 Y103.848 E16.11816
G1 X145.926 Y106.143 E16.20264
G1 X147.065 Y108.38 E16.28613
G1 X148.305 Y110.655 E16.3723
G1 X149.507 Y112.724 E16.45189
G1 X149.926 Y113.525 E16.48196
G1 X150.272 Y114.359 E16.51199
G1 X150.543 Y115.22 E16.54201
G1 X150.737 Y116.102 E16.57205
G1 X150.852 Y116.998 E16.60209
G1 X150.881 Y117.479 E16.61812
G1 X150.9 Y118.18 E16.64144
G1 X150.899 Y133.24 E17.14234
G1 X150.89 Y133.967 E17.16652
G1 X150.839 Y134.869 E17.19657
G1 X150.708 Y135.763 E17.22662
G1 X150.499 Y136.641 E17.25664
G1 X150.213 Y137.498 E17.28669
G1 X149.852 Y138.326 E17.31673
G1 X149.42 Y139.118 E17.34674
G1 X148.919 Y139.87 E17.37679
G1 X148.353 Y140.574 E17.40684
G1 X147.728 Y141.225 E17.43685
G1 X147.047 Y141.819 E17.46691
G1 X146.316 Y142.35 E17.49696
G1 X145.542 Y142.814 E17.52697
G1 X144.729 Y143.208 E17.55702
G1 X143.885 Y143.528 E17.58704
G1 X143.015 Y143.773 E17.61711
G1 X142.128 Y143.939 E17.64712
G1 X140.977 Y144.037 E17.68554
G1 X140.37 Y144.05 E17.70573
G1 X94.875 Y144.049 E19.2189
G1 X94.177 Y144.04 E19.24212
G1 X93.276 Y143.989 E19.27214
G1 X92.382 Y143.857 E19.30219
G1 X91.504 Y143.648 E19.33221
G1 X90.647 Y143.361 E19.36227
G1 X89.82 Y143 E19.39229
G1 X89.027 Y142.567 E19.42234
G1 X88.276 Y142.066 E19.45236
G1 X87.572 Y141.5 E19.48241
G1 X86.921 Y140.874 E19.51245
G1 X86.328 Y140.193 E19.54248
G1 X85.798 Y139.462 E19.57251
G1 X85.334 Y138.687 E19.60255
G1 X84.94 Y137.874 E19.6326
G1 X84.62 Y137.03 E19.66262
G1 X84.376 Y136.16 E19.69268
G1 X84.21 Y135.272 E19.72272
G1 X84.113 Y134.117 E19.76127
G1 X84.1 Y133.508 E19.78153
G1 X84.101 Y118.412 E20.28363
G1 X84.111 Y117.708 E20.30705
G1 X84.164 Y116.807 E20.33707
G1 X84.296 Y115.913 E20.36712
G1 X84.507 Y115.035 E20.39716
G1 X84.795 Y114.179 E20.4272
G1 X85.157 Y113.352 E20.45722
G1 X85.492 Y112.727 E20.48081
G1 X86.346 Y111.258 E20.53732
G1 X87.588 Y109.028 E20.62222
G1 X88.777 Y106.741 E20.70795
G1 X89.871 Y104.484 E20.79137
G1 X90.916 Y102.163 E20.87603
G1 X91.901 Y99.798 E20.96124
G1 X92.789 Y97.493 E21.0434
G1 X93.151 Y96.666 E21.07343
G1 X93.584 Y95.873 E21.10348
G1 X94.086 Y95.122 E21.13352
G1 X94.652 Y94.419 E21.16354
G1 X95.278 Y93.768 E21.19358
G1 F2700 E16.19358
;MESH:Xiaomi_HS_standv3.stl
G0 F6000 X106.426 Y119.723
G0 X107.941 Y124.194
;TYPE:WALL-INNER
G1 F2700 E21.19358
G1 F1200 X107.555 Y124.186 E21.20642
G1 X107.165 Y124.112 E21.21962
G1 X106.841 Y124 E21.23103
G1 X106.452 Y123.774 E21.24599
G1 X106.158 Y123.532 E21.25865
G1 X105.94 Y123.291 E21.26946
G1 X105.743 Y122.984 E21.2816
G1 X105.568 Y122.599 E21.29566
G1 X105.484 Y122.259 E21.30731
G1 X105.446 Y121.824 E21.32183
G1 X105.484 Y121.442 E21.3346
G1 X105.574 Y121.094 E21.34656
G1 X105.761 Y120.681 E21.36164
G1 X105.967 Y120.377 E21.37385
G1 X106.222 Y120.106 E21.38623
G1 X106.528 Y119.873 E21.39902
G1 X106.854 Y119.698 E21.41132
G1 X107.259 Y119.561 E21.42554
G1 X107.614 Y119.507 E21.43749
G1 X107.975 Y119.506 E21.44949
G1 X108.363 Y119.568 E21.46256
G1 X108.767 Y119.707 E21.47677
G1 X109.098 Y119.89 E21.48935
G1 X109.43 Y120.155 E21.50348
G1 X109.648 Y120.394 E21.51424
G1 X109.857 Y120.716 E21.52701
G1 X110.026 Y121.093 E21.54075
G1 X110.127 Y121.508 E21.55496
G1 X110.151 Y121.869 E21.56699
G1 X110.115 Y122.262 E21.58012
G1 X110.028 Y122.601 E21.59176
G1 X109.875 Y122.952 E21.60449
G1 X109.672 Y123.271 E21.61707
G1 X109.385 Y123.592 E21.63139
G1 X109.018 Y123.859 E21.64648
G1 X108.767 Y123.991 E21.65592
G1 X108.363 Y124.137 E21.6702
G1 X107.941 Y124.194 E21.68437
G1 F2700 E16.68437
G0 F6000 X108.088 Y124.28
G0 X109.504 Y123.729
G0 X125.793 Y123.958
G0 X126.955 Y124.186
G1 F2700 E21.68437
G1 F1200 X126.565 Y124.112 E21.69757
G1 X126.241 Y124 E21.70897
G1 X125.852 Y123.774 E21.72394
G1 X125.558 Y123.532 E21.7366
G1 X125.33 Y123.283 E21.74783
G1 X125.101 Y122.903 E21.76259
G1 X124.974 Y122.607 E21.7733
G1 X124.879 Y122.235 E21.78607
G1 X124.846 Y121.821 E21.79988
G1 X124.885 Y121.438 E21.81269
G1 X124.972 Y121.099 E21.82433
G1 X125.144 Y120.705 E21.83863
G1 X125.365 Y120.379 E21.85173
G1 X125.591 Y120.136 E21.86276
G1 X125.916 Y119.881 E21.8765
G1 X126.291 Y119.682 E21.89062
G1 X126.634 Y119.567 E21.90265
G1 X127.027 Y119.506 E21.91588
G1 X127.389 Y119.507 E21.92792
G1 X127.76 Y119.568 E21.94043
G1 X128.163 Y119.705 E21.95459
G1 X128.503 Y119.894 E21.96752
G1 X128.812 Y120.134 E21.98054
G1 X129.084 Y120.441 E21.99418
G1 X129.287 Y120.77 E22.00704
G1 X129.444 Y121.151 E22.02074
G1 X129.521 Y121.467 E22.03156
G1 X129.551 Y121.904 E22.04613
G1 X129.51 Y122.288 E22.05897
G1 X129.422 Y122.625 E22.07056
G1 X129.255 Y122.996 E22.08409
G1 X129.047 Y123.305 E22.09648
G1 X128.782 Y123.594 E22.10952
G1 X128.418 Y123.859 E22.1245
G1 X128.167 Y123.991 E22.13393
G1 X127.763 Y124.137 E22.14822
G1 X127.341 Y124.194 E22.16238
G1 X126.955 Y124.186 E22.17522
G1 F2700 E17.17522
G0 F6000 X126.939 Y124.286
G0 X128.198 Y124.179
G0 X128.198 Y133.05
G0 X140.1 Y133.25
G1 F2700 E22.17522
G1 F1200 X140.1 Y118.45 E22.66747
G1 X136.678 Y118.45 E22.78129
G1 X136.245 Y118.427 E22.79571
G1 X135.736 Y118.349 E22.81284
G1 X135.244 Y118.213 E22.82981
G1 X134.838 Y118.057 E22.84428
G1 X134.39 Y117.829 E22.861
G1 X134.019 Y117.588 E22.87571
G1 X133.594 Y117.245 E22.89388
G1 X133.302 Y116.952 E22.90764
G1 X132.962 Y116.531 E22.92563
G1 X132.727 Y116.169 E22.93999
G1 X132.5 Y115.727 E22.95652
G1 X132.318 Y115.249 E22.97353
G1 X132.201 Y114.815 E22.98848
G1 X132.124 Y114.322 E23.00507
G1 X132.1 Y113.84 E23.02112
G1 X132.1 Y101.75 E23.42324
G1 X125.3 Y101.75 E23.64941
G1 X125.3 Y105.872 E23.78651
G1 X125.271 Y106.366 E23.80297
G1 X125.206 Y106.782 E23.81697
G1 X125.082 Y107.249 E23.83304
G1 X124.916 Y107.69 E23.84871
G1 X124.7 Y108.121 E23.86475
G1 X124.438 Y108.531 E23.88093
G1 X124.098 Y108.953 E23.89896
G1 X123.795 Y109.253 E23.91314
G1 X123.405 Y109.572 E23.9299
G1 X123.021 Y109.822 E23.94514
G1 X122.57 Y110.054 E23.962
G1 X122.125 Y110.224 E23.97785
G1 X121.621 Y110.358 E23.99519
G1 X121.216 Y110.421 E24.00883
G1 X120.69 Y110.451 E24.02635
G1 X114.278 Y110.45 E24.23961
G1 X113.845 Y110.427 E24.25404
G1 X113.374 Y110.357 E24.26987
G1 X112.878 Y110.225 E24.28694
G1 X112.46 Y110.066 E24.30182
G1 X112.008 Y109.839 E24.31864
G1 X111.595 Y109.572 E24.335
G1 X111.194 Y109.245 E24.35221
G1 X110.905 Y108.956 E24.3658
G1 X110.562 Y108.531 E24.38397
G1 X110.3 Y108.121 E24.40015
G1 X110.084 Y107.69 E24.41618
G1 X109.918 Y107.249 E24.43186
G1 X109.794 Y106.782 E24.44793
G1 X109.723 Y106.305 E24.46397
G1 X109.7 Y105.872 E24.47839
G1 X109.7 Y101.75 E24.61549
G1 X102.9 Y101.75 E24.84166
G1 X102.9 Y113.872 E25.24484
G1 X102.876 Y114.322 E25.25982
G1 X102.794 Y114.836 E25.27714
G1 X102.663 Y115.306 E25.29336
G1 X102.507 Y115.712 E25.30783
G1 X102.269 Y116.175 E25.32515
G1 X102.038 Y116.531 E25.33926
G1 X101.693 Y116.958 E25.35752
G1 X101.406 Y117.245 E25.37102
G1 X100.981 Y117.588 E25.38918
G1 X100.595 Y117.837 E25.40446
G1 X100.18 Y118.049 E25.41996
G1 X99.699 Y118.232 E25.43708
G1 X99.286 Y118.344 E25.45131
G1 X98.756 Y118.427 E25.46915
G1 X98.349 Y118.449 E25.48271
G1 X94.9 Y118.45 E25.59742
G1 X94.9 Y133.25 E26.08967
G1 X140.1 Y133.25 E27.59303
G0 F6000 X140.5 Y133.65
;TYPE:WALL-OUTER
G1 F1200 X140.5 Y118.05 E28.11189
G1 X136.699 Y118.05 E28.23831
G1 X136.246 Y118.025 E28.2534
G1 X135.819 Y117.958 E28.26778
G1 X135.387 Y117.839 E28.28268
G1 X134.984 Y117.684 E28.29704
G1 X134.598 Y117.487 E28.31146
G1 X134.22 Y117.24 E28.32647
G1 X133.877 Y116.962 E28.34116
G1 X133.587 Y116.672 E28.3548
G1 X133.31 Y116.33 E28.36944
G1 X133.065 Y115.955 E28.38434
G1 X132.858 Y115.547 E28.39955
G1 X132.704 Y115.144 E28.4139
G1 X132.588 Y114.709 E28.42888
G1 X132.523 Y114.284 E28.44318
