;FLAVOR:Marlin
;TIME:4681
;Filament used: 2.94258m
;Layer height: 0.2
;MINX:67.25
;MINY:49.5
;MINZ:0.2
;MAXX:167.75
;MAXY:147
;MAXZ:3.4
;TARGET_MACHINE.NAME:Creality Ender-3
;Generated with Cura_SteamEngine 5.6.0
M140 S60
M105
M190 S60
M104 S205
M105
M109 S205
M82 ;absolute extrusion mode
; Ender 3 Custom Start G-code
G92 E0 ; Reset Extruder
G28 ; Home all axes
G1 Z2.0 F3000 ; Move Z Axis up little to prevent scratching of Heat Bed
G1 X0.1 Y20 Z0.3 F5000.0 ; Move to start position
G1 X0.1 Y200.0 Z0.3 F1500.0 E15 ; Draw the first line
G1 X0.4 Y200.0 Z0.3 F5000.0 ; Move to side a little
G1 X0.4 Y20 Z0.3 F1500.0 E30 ; Draw the second line
G92 E0 ; Reset Extruder
G1 Z2.0 F3000 ; Move Z Axis up little to prevent scratching of Heat Bed
G1 X5 Y20 Z0.3 F5000.0 ; Move over to prevent blob squish
G92 E0
G92 E0
G1 F2700 E-5
;LAYER_COUNT:17
;LAYER:0
M107
G0 F6000 X70.432 Y55.286 Z0.2
;TYPE:SKIRT
G1 F2700 E0
G1 F1200 X70.94 Y54.673 E0.02648
G1 X71.277 Y54.295 E0.04332
G1 X71.964 Y53.593 E0.07599
G1 X72.469 Y53.148 E0.09838
G1 X72.928 Y52.77 E0.11816
G1 X73.889 Y52.063 E0.15784
G1 X74.459 Y51.703 E0.18026
G1 X74.861 Y51.465 E0.1958
G1 X75.889 Y50.931 E0.23433
G1 X76.561 Y50.639 E0.2587
G1 X76.978 Y50.474 E0.27361
G1 X78.101 Y50.1 E0.31298
G1 X78.81 Y49.917 E0.33733
G1 X79.234 Y49.822 E0.35179
G1 X80.376 Y49.631 E0.3903
G1 X81.107 Y49.562 E0.41472
G1 X82.062 Y49.511 E0.44653
G1 X82.756 Y49.5 E0.46961
G1 X86.105 Y49.501 E0.581
G1 X86.84 Y49.514 E0.60545
G1 X87.59 Y49.552 E0.63043
G1 X90.595 Y49.813 E0.73075
G1 X93.102 Y49.954 E0.81427
G1 X95.636 Y50.026 E0.89858
G1 X98.125 Y50.026 E0.98137
G1 X100.665 Y49.954 E1.06588
G1 X103.155 Y49.815 E1.14883
G1 X106.275 Y49.548 E1.25298
G1 X106.886 Y49.513 E1.27333
G1 X107.51 Y49.5 E1.29409
G1 X121.644 Y49.501 E1.76419
G1 X122.399 Y49.514 E1.78931
G1 X123.441 Y49.583 E1.82404
G1 X126.274 Y49.906 E1.91888
G1 X128.771 Y50.12 E2.00223
G1 X131.278 Y50.26 E2.08574
G1 X133.818 Y50.332 E2.17026
G1 X136.307 Y50.332 E2.25304
G1 X138.841 Y50.26 E2.33736
G1 X141.356 Y50.117 E2.42114
G1 X143.871 Y49.905 E2.50509
G1 X146.785 Y49.577 E2.60262
G1 X147.696 Y49.513 E2.63299
G1 X148.32 Y49.5 E2.65375
G1 X152.266 Y49.502 E2.785
G1 X153.182 Y49.522 E2.81547
G1 X153.965 Y49.567 E2.84156
G1 X154.508 Y49.619 E2.8597
G1 X155.463 Y49.754 E2.89178
G1 X156.16 Y49.908 E2.91552
G1 X156.704 Y50.047 E2.9342
G1 X157.877 Y50.419 E2.97512
G1 X158.568 Y50.694 E2.99986
G1 X158.989 Y50.877 E3.01513
G1 X159.801 Y51.273 E3.04518
G1 X160.348 Y51.59 E3.0662
G1 X160.907 Y51.936 E3.08807
G1 X161.976 Y52.691 E3.1316
G1 X162.529 Y53.149 E3.15548
G1 X162.863 Y53.444 E3.1703
G1 X163.546 Y54.103 E3.20187
G1 X163.942 Y54.542 E3.22153
G1 X164.365 Y55.04 E3.24327
G1 X164.959 Y55.803 E3.27543
G1 X165.351 Y56.398 E3.29912
G1 X165.7 Y56.968 E3.32135
G1 X166.166 Y57.813 E3.35345
G1 X166.476 Y58.495 E3.37837
G1 X166.731 Y59.116 E3.40069
G1 X167.148 Y60.341 E3.44373
G1 X167.333 Y61.06 E3.46843
G1 X167.427 Y61.483 E3.48284
G1 X167.621 Y62.643 E3.52196
G1 X167.689 Y63.367 E3.54614
G1 X167.738 Y64.284 E3.57669
G1 X167.75 Y65.006 E3.6007
G1 X167.749 Y92.949 E4.53009
G1 X167.739 Y93.667 E4.55397
G1 X167.642 Y96.943 E4.66298
G1 X167.642 Y99.477 E4.74726
G1 X167.746 Y103.164 E4.86994
G1 X167.749 Y106.753 E4.98931
G1 X167.739 Y107.456 E5.0127
G1 X167.64 Y110.755 E5.12247
G1 X167.64 Y113.249 E5.20542
G1 X167.746 Y116.828 E5.32451
G1 X167.748 Y131.516 E5.81304
G1 X167.728 Y132.43 E5.84345
G1 X167.685 Y133.193 E5.86886
G1 X167.639 Y133.683 E5.88523
G1 X167.516 Y134.577 E5.91525
G1 X167.381 Y135.226 E5.93729
G1 X167.229 Y135.849 E5.95862
G1 X166.822 Y137.154 E6.00409
G1 X166.566 Y137.796 E6.02708
G1 X166.388 Y138.208 E6.04201
G1 X165.981 Y139.045 E6.07296
G1 X165.671 Y139.583 E6.09361
G1 X165.346 Y140.111 E6.11423
G1 X164.574 Y141.208 E6.15885
G1 X164.094 Y141.789 E6.18392
G1 X163.793 Y142.129 E6.19902
G1 X163.166 Y142.779 E6.22906
G1 X162.7 Y143.2 E6.24994
G1 X162.209 Y143.617 E6.27137
G1 X161.11 Y144.437 E6.31698
G1 X160.521 Y144.808 E6.34013
G1 X160.11 Y145.051 E6.35601
G1 X159.261 Y145.501 E6.38797
G1 X158.734 Y145.734 E6.40713
G1 X158.122 Y145.985 E6.42913
G1 X156.931 Y146.391 E6.47099
G1 X156.19 Y146.583 E6.49645
G1 X155.766 Y146.678 E6.5109
G1 X154.624 Y146.869 E6.54941
G1 X153.893 Y146.938 E6.57383
G1 X152.938 Y146.989 E6.60564
G1 X152.244 Y147 E6.62872
G1 X82.734 Y146.998 E8.94063
G1 X81.82 Y146.978 E8.97104
G1 X81.062 Y146.935 E8.99629
G1 X80.573 Y146.89 E9.01263
G1 X79.433 Y146.719 E9.05097
G1 X78.69 Y146.553 E9.07629
G1 X78.238 Y146.436 E9.09182
G1 X77.114 Y146.078 E9.13105
G1 X76.432 Y145.806 E9.15547
G1 X76.011 Y145.623 E9.17074
G1 X75.199 Y145.227 E9.20079
G1 X74.644 Y144.906 E9.22211
G1 X74.084 Y144.56 E9.24401
G1 X73.042 Y143.823 E9.28646
G1 X72.425 Y143.31 E9.31315
G1 X72.073 Y142.996 E9.32884
G1 X71.425 Y142.366 E9.35889
G1 X71.03 Y141.927 E9.37854
G1 X70.628 Y141.453 E9.39921
G1 X69.813 Y140.361 E9.44453
G1 X69.454 Y139.792 E9.46691
G1 X69.214 Y139.388 E9.48253
G1 X68.788 Y138.592 E9.51256
G1 X68.52 Y137.992 E9.53442
G1 X68.266 Y137.373 E9.55667
G1 X67.859 Y136.181 E9.59857
G1 X67.667 Y135.44 E9.62403
G1 X67.572 Y135.016 E9.63848
G1 X67.381 Y133.874 E9.67699
G1 X67.312 Y133.143 E9.70141
G1 X67.261 Y132.188 E9.73322
G1 X67.25 Y131.494 E9.7563
G1 X67.251 Y103.552 E10.68566
G1 X67.261 Y102.825 E10.70984
G1 X67.358 Y99.555 E10.81865
G1 X67.358 Y97.023 E10.90286
G1 X67.254 Y93.325 E11.02591
G1 X67.25 Y65.193 E11.96158
G1 X67.272 Y64.068 E11.99901
G1 X67.317 Y63.285 E12.02509
G1 X67.369 Y62.742 E12.04324
G1 X67.504 Y61.787 E12.07532
G1 X67.658 Y61.09 E12.09906
G1 X67.797 Y60.546 E12.11773
G1 X68.174 Y59.36 E12.15912
G1 X68.447 Y58.674 E12.18368
G1 X68.627 Y58.26 E12.19869
G1 X69.023 Y57.448 E12.22874
G1 X69.34 Y56.902 E12.24974
G1 X69.686 Y56.343 E12.27161
G1 X70.432 Y55.286 E12.31464
G0 F6000 X70.74 Y55.541
G1 F1200 X71.239 Y54.939 E12.34064
G1 X71.576 Y54.561 E12.35749
G1 X72.228 Y53.893 E12.38853
G1 X72.724 Y53.456 E12.41052
G1 X73.165 Y53.092 E12.42954
G1 X74.103 Y52.401 E12.46829
G1 X74.663 Y52.047 E12.49032
G1 X75.046 Y51.82 E12.50513
G1 X76.049 Y51.298 E12.54274
G1 X76.709 Y51.011 E12.56668
G1 X77.104 Y50.854 E12.58081
G1 X78.227 Y50.48 E12.62018
G1 X78.897 Y50.307 E12.6432
G1 X79.3 Y50.217 E12.65693
G1 X80.442 Y50.026 E12.69544
G1 X81.128 Y49.961 E12.71836
G1 X82.068 Y49.911 E12.74967
G1 X82.756 Y49.9 E12.77256
G1 X86.098 Y49.901 E12.88371
G1 X86.82 Y49.913 E12.90773
G1 X87.555 Y49.95 E12.93221
G1 X90.569 Y50.212 E13.03283
G1 X93.091 Y50.354 E13.11684
G1 X95.625 Y50.426 E13.20116
G1 X98.136 Y50.426 E13.28468
G1 X100.676 Y50.354 E13.36919
G1 X103.189 Y50.213 E13.4529
G1 X106.298 Y49.947 E13.55669
G1 X106.894 Y49.913 E13.57654
G1 X107.51 Y49.9 E13.59704
G1 X121.637 Y49.901 E14.0669
G1 X122.373 Y49.913 E14.09138
G1 X123.396 Y49.98 E14.12548
G1 X126.24 Y50.305 E14.22069
G1 X128.737 Y50.518 E14.30404
G1 X131.267 Y50.66 E14.38832
G1 X133.807 Y50.732 E14.47284
G1 X136.318 Y50.732 E14.55635
G1 X138.852 Y50.66 E14.64067
G1 X141.39 Y50.516 E14.72522
G1 X143.905 Y50.303 E14.80917
G1 X146.813 Y49.976 E14.9065
G1 X147.704 Y49.913 E14.93621
G1 X148.32 Y49.9 E14.9567
G1 X152.258 Y49.902 E15.08768
G1 X153.159 Y49.921 E15.11765
G1 X153.927 Y49.965 E15.14324
G1 X154.452 Y50.015 E15.16078
G1 X155.377 Y50.145 E15.19185
G1 X156.061 Y50.296 E15.21514
G1 X156.605 Y50.435 E15.23382
G1 X157.756 Y50.8 E15.27398
G1 X158.409 Y51.061 E15.29737
G1 X158.814 Y51.237 E15.31206
G1 X159.626 Y51.633 E15.3421
G1 X160.138 Y51.93 E15.36179
G1 X160.677 Y52.263 E15.38286
G1 X161.721 Y52.999 E15.42535
G1 X162.264 Y53.449 E15.4488
G1 X162.585 Y53.732 E15.46304
G1 X163.268 Y54.391 E15.4946
G1 X163.637 Y54.801 E15.51295
G1 X164.05 Y55.286 E15.53414
G1 X164.625 Y56.023 E15.56523
G1 X165.01 Y56.607 E15.58849
G1 X165.35 Y57.161 E15.61011
G1 X165.802 Y57.979 E15.6412
G1 X166.106 Y58.647 E15.66561
G1 X166.352 Y59.245 E15.68711
G1 X166.769 Y60.47 E15.73015
G1 X166.943 Y61.147 E15.7534
G1 X167.033 Y61.549 E15.7671
G1 X167.223 Y62.681 E15.80528
G1 X167.29 Y63.388 E15.8289
G1 X167.338 Y64.291 E15.85898
G1 X167.35 Y65.006 E15.88276
G1 X167.349 Y92.943 E16.81195
G1 X167.339 Y93.655 E16.83563
G1 X167.242 Y96.931 E16.94464
G1 X167.242 Y99.477 E17.02932
G1 X167.289 Y101.357 E17.09187
G1 X167.346 Y103.164 E17.152
G1 X167.349 Y106.747 E17.27117
G1 X167.339 Y107.444 E17.29436
G1 X167.24 Y110.743 E17.40413
G1 X167.24 Y113.249 E17.48748
G1 X167.346 Y116.828 E17.60657
G1 X167.348 Y131.508 E18.09483
G1 X167.329 Y132.408 E18.12477
G1 X167.287 Y133.156 E18.14969
G1 X167.243 Y133.628 E18.16546
G1 X167.12 Y134.522 E18.19547
G1 X166.992 Y135.131 E18.21617
G1 X166.84 Y135.754 E18.2375
G1 X166.45 Y137.006 E18.28111
G1 X166.199 Y137.637 E18.3037
G1 X166.028 Y138.033 E18.31805
G1 X165.634 Y138.845 E18.34807
G1 X165.33 Y139.373 E18.36833
G1 X165.005 Y139.901 E18.38895
G1 X164.266 Y140.953 E18.43171
G1 X163.794 Y141.524 E18.45635
G1 X163.505 Y141.851 E18.47087
G1 X162.878 Y142.501 E18.5009
G1 X162.441 Y142.895 E18.52047
G1 X161.95 Y143.312 E18.5419
G1 X160.897 Y144.099 E18.58562
G1 X160.318 Y144.464 E18.60839
G1 X159.922 Y144.698 E18.62369
G1 X159.099 Y145.135 E18.65468
G1 X158.582 Y145.364 E18.67349
G1 X157.993 Y145.606 E18.69467
G1 X156.802 Y146.012 E18.73652
G1 X156.103 Y146.193 E18.76053
G1 X155.7 Y146.283 E18.77427
G1 X154.558 Y146.474 E18.81278
G1 X153.872 Y146.539 E18.8357
G1 X152.932 Y146.589 E18.867
G1 X152.244 Y146.6 E18.88989
G1 X82.742 Y146.598 E21.20154
G1 X81.843 Y146.579 E21.23144
G1 X81.099 Y146.537 E21.25623
G1 X80.632 Y146.494 E21.27183
G1 X79.492 Y146.323 E21.31017
G1 X78.79 Y146.166 E21.33409
G1 X78.359 Y146.055 E21.3489
G1 X77.262 Y145.706 E21.38718
G1 X76.591 Y145.439 E21.4112
G1 X76.186 Y145.263 E21.42589
G1 X75.374 Y144.867 E21.45594
G1 X74.854 Y144.566 E21.47592
G1 X74.315 Y144.233 E21.497
G1 X73.298 Y143.515 E21.5384
G1 X72.691 Y143.011 E21.56464
G1 X72.352 Y142.709 E21.57974
G1 X71.704 Y142.079 E21.6098
G1 X71.335 Y141.668 E21.62817
G1 X70.933 Y141.194 E21.64884
G1 X70.151 Y140.147 E21.69231
G1 X69.798 Y139.588 E21.7143
G1 X69.567 Y139.199 E21.72935
G1 X69.141 Y138.403 E21.75937
G1 X68.89 Y137.84 E21.77988
G1 X68.645 Y137.244 E21.80131
G1 X68.238 Y136.052 E21.8432
G1 X68.057 Y135.353 E21.86722
G1 X67.967 Y134.95 E21.88095
G1 X67.776 Y133.808 E21.91946
G1 X67.711 Y133.122 E21.94238
G1 X67.661 Y132.182 E21.97369
G1 X67.65 Y131.494 E21.99658
G1 X67.651 Y103.558 E22.92573
G1 X67.661 Y102.837 E22.94971
G1 X67.758 Y99.567 E23.05852
G1 X67.758 Y97.023 E23.14314
G1 X67.654 Y93.325 E23.26618
G1 X67.65 Y65.201 E24.20159
G1 X67.671 Y64.091 E24.23851
G1 X67.715 Y63.323 E24.2641
G1 X67.765 Y62.798 E24.28164
G1 X67.895 Y61.873 E24.31271
G1 X68.046 Y61.189 E24.33601
G1 X68.185 Y60.645 E24.35468
G1 X68.555 Y59.481 E24.3953
G1 X68.814 Y58.833 E24.41851
G1 X68.987 Y58.435 E24.43295
G1 X69.383 Y57.623 E24.463
G1 X69.68 Y57.112 E24.48265
G1 X70.013 Y56.573 E24.50373
G1 X70.74 Y55.541 E24.54571
G0 F6000 X71.048 Y55.796
G1 F1200 X71.538 Y55.205 E24.57125
G1 X71.863 Y54.84 E24.5875
G1 X72.493 Y54.193 E24.61754
G1 X72.979 Y53.764 E24.6391
G1 X73.402 Y53.414 E24.65736
G1 X74.317 Y52.739 E24.69518
G1 X74.867 Y52.391 E24.71683
G1 X75.231 Y52.175 E24.7309
G1 X76.234 Y51.653 E24.76851
G1 X76.857 Y51.383 E24.79109
G1 X77.252 Y51.226 E24.80523
G1 X78.327 Y50.867 E24.84293
G1 X78.985 Y50.697 E24.86553
G1 X79.366 Y50.611 E24.87852
G1 X80.48 Y50.424 E24.91609
G1 X81.149 Y50.36 E24.93844
G1 X82.074 Y50.311 E24.96925
G1 X82.756 Y50.3 E24.99194
G1 X86.092 Y50.301 E25.1029
G1 X86.799 Y50.312 E25.12641
G1 X87.52 Y50.349 E25.15043
G1 X90.534 Y50.61 E25.25105
G1 X93.08 Y50.754 E25.33586
G1 X95.614 Y50.826 E25.42018
G1 X98.147 Y50.826 E25.50443
G1 X100.687 Y50.754 E25.58894
G1 X103.223 Y50.611 E25.67342
G1 X106.321 Y50.346 E25.77684
G1 X106.903 Y50.313 E25.79623
G1 X107.51 Y50.3 E25.81642
G1 X121.631 Y50.301 E26.28609
G1 X122.347 Y50.312 E26.3099
G1 X123.35 Y50.377 E26.34333
G1 X126.206 Y50.704 E26.43894
G1 X128.703 Y50.916 E26.52229
G1 X131.256 Y51.06 E26.60734
G1 X133.796 Y51.132 E26.69186
G1 X136.329 Y51.132 E26.7761
G1 X138.863 Y51.06 E26.86042
G1 X141.424 Y50.915 E26.94574
G1 X143.939 Y50.701 E27.02969
G1 X146.841 Y50.375 E27.12682
G1 X147.713 Y50.313 E27.15589
G1 X148.32 Y50.3 E27.17608
G1 X152.25 Y50.302 E27.3068
G1 X153.136 Y50.32 E27.33627
G1 X153.889 Y50.363 E27.36136
G1 X154.397 Y50.411 E27.37833
G1 X155.291 Y50.536 E27.40835
G1 X155.962 Y50.684 E27.43121
G1 X156.506 Y50.823 E27.44988
G1 X157.608 Y51.172 E27.48833
G1 X158.25 Y51.428 E27.51132
G1 X158.639 Y51.597 E27.52542
G1 X159.451 Y51.993 E27.55547
G1 X159.928 Y52.27 E27.57382
G1 X160.447 Y52.59 E27.5941
G1 X161.466 Y53.307 E27.63554
G1 X161.999 Y53.749 E27.65857
G1 X162.32 Y54.032 E27.6728
G1 X162.971 Y54.659 E27.70286
G1 X163.333 Y55.061 E27.72086
G1 X163.735 Y55.532 E27.74145
G1 X164.291 Y56.244 E27.7715
G1 X164.669 Y56.816 E27.7943
G1 X165 Y57.355 E27.81534
G1 X165.438 Y58.145 E27.84538
G1 X165.736 Y58.8 E27.86932
G1 X165.973 Y59.374 E27.88997
G1 X166.39 Y60.599 E27.93301
G1 X166.553 Y61.235 E27.95485
G1 X166.639 Y61.616 E27.96784
G1 X166.825 Y62.719 E28.00504
G1 X166.891 Y63.409 E28.0281
G1 X166.938 Y64.298 E28.05771
G1 X166.95 Y65.006 E28.08126
G1 X166.949 Y92.937 E29.01025
G1 X166.939 Y93.643 E29.03373
G1 X166.842 Y96.919 E29.14274
G1 X166.842 Y99.477 E29.22782
G1 X166.889 Y101.37 E29.2908
G1 X166.946 Y103.164 E29.3505
G1 X166.949 Y106.741 E29.46947
G1 X166.939 Y107.432 E29.49245
G1 X166.84 Y110.731 E29.60223
G1 X166.84 Y113.249 E29.68598
G1 X166.946 Y116.828 E29.80507
G1 X166.948 Y131.5 E30.29306
G1 X166.93 Y132.386 E30.32254
G1 X166.889 Y133.119 E30.34695
G1 X166.847 Y133.573 E30.36212
G1 X166.724 Y134.467 E30.39213
G1 X166.603 Y135.037 E30.41151
G1 X166.458 Y135.635 E30.43198
G1 X166.078 Y136.858 E30.47457
G1 X165.832 Y137.478 E30.49676
G1 X165.668 Y137.858 E30.51053
G1 X165.274 Y138.67 E30.54054
G1 X164.989 Y139.163 E30.55948
G1 X164.664 Y139.691 E30.58011
G1 X163.957 Y140.698 E30.62103
G1 X163.494 Y141.259 E30.64522
G1 X163.217 Y141.573 E30.65915
G1 X162.59 Y142.223 E30.68919
G1 X162.182 Y142.59 E30.70744
G1 X161.71 Y142.992 E30.72806
G1 X160.683 Y143.761 E30.77073
G1 X160.115 Y144.12 E30.79308
G1 X159.734 Y144.345 E30.8078
G1 X158.937 Y144.769 E30.83782
G1 X158.43 Y144.994 E30.85627
G1 X157.864 Y145.227 E30.87663
G1 X156.673 Y145.633 E30.91848
G1 X156.015 Y145.803 E30.94109
G1 X155.634 Y145.889 E30.95408
G1 X154.52 Y146.076 E30.99165
G1 X153.851 Y146.14 E31.014
G1 X152.926 Y146.189 E31.04481
G1 X152.244 Y146.2 E31.0675
G1 X82.75 Y146.198 E33.37888
G1 X81.865 Y146.18 E33.40832
G1 X81.136 Y146.139 E33.4326
G1 X80.691 Y146.098 E33.44746
G1 X79.551 Y145.927 E33.48581
G1 X78.889 Y145.779 E33.50837
G1 X78.48 Y145.674 E33.52241
G1 X77.383 Y145.325 E33.5607
G1 X76.75 Y145.072 E33.58337
G1 X76.361 Y144.903 E33.59748
G1 X75.549 Y144.507 E33.62753
G1 X75.064 Y144.226 E33.64617
G1 X74.546 Y143.906 E33.66642
G1 X73.529 Y143.188 E33.70783
G1 X72.957 Y142.712 E33.73258
G1 X72.631 Y142.422 E33.74709
G1 X71.983 Y141.792 E33.77715
G1 X71.64 Y141.409 E33.79425
G1 X71.253 Y140.954 E33.81412
G1 X70.489 Y139.933 E33.85653
G1 X70.142 Y139.384 E33.87813
G1 X69.92 Y139.01 E33.8926
G1 X69.494 Y138.214 E33.92263
G1 X69.26 Y137.688 E33.94177
G1 X69.024 Y137.115 E33.96238
G1 X68.617 Y135.923 E34.00428
G1 X68.447 Y135.265 E34.02688
G1 X68.361 Y134.884 E34.03987
G1 X68.174 Y133.77 E34.07744
G1 X68.11 Y133.101 E34.0998
G1 X68.061 Y132.176 E34.1306
G1 X68.05 Y131.494 E34.15329
G1 X68.051 Y103.564 E35.08225
G1 X68.061 Y102.849 E35.10603
G1 X68.158 Y99.579 E35.21484
G1 X68.158 Y97.023 E35.29985
G1 X68.111 Y95.13 E35.36283
G1 X68.054 Y93.325 E35.4229
G1 X68.05 Y65.208 E36.35807
G1 X68.07 Y64.114 E36.39446
G1 X68.113 Y63.361 E36.41955
G1 X68.161 Y62.853 E36.43652
G1 X68.286 Y61.959 E36.46655
G1 X68.434 Y61.288 E36.4894
G1 X68.573 Y60.744 E36.50807
G1 X68.927 Y59.629 E36.54698
G1 X69.181 Y58.992 E36.56979
G1 X69.347 Y58.61 E36.58365
G1 X69.743 Y57.798 E36.61369
G1 X70.02 Y57.322 E36.63201
G1 X70.34 Y56.803 E36.65229
G1 X71.048 Y55.796 E36.69323
G1 F2700 E31.69323
;MESH:WiFi Devboard.stl
G0 F6000 X80.102 Y63.167
G0 X82.522 Y66.181
;TYPE:WALL-INNER
G1 F2700 E36.69323
